X: 217
T:Qui habitat in adjutorio altissimi
N: Derived from Jos1808-Qui_habitat_in_adjutorio_altissimi.krn
C: Josquin des Prez
%%abc-version 2.0
%%abcx-abcm2ps-target-version 5.9.1 (29 Sep 2008)
%%abc-creator hum2abc beta
%%abcx-conversion-date 2019/02/12 16:15:49
%%abc-edited-by Jesse Rodin
%%abc-edited-by Joel Chapman 2012/05/02
%%abcx-initial-encoding-date 2012/05/02/
%%humdrum-veritas 1447089225
%%humdrum-veritas-data 1740801852
%%linebreak <none>
%%barnumbers 0
L: 1/4
M: 2/1
Q: 1/2=120
V: 1 clef=treble
V: 2 clef=treble
V: 3 clef=treble
V: 4 clef=treble
V: 5 clef=treble
V: 6 clef=treble
V: 7 clef=treble-8
V: 8 clef=treble-8
V: 9 clef=treble-8
V: 10 clef=treble-8
V: 11 clef=treble-8
V: 12 clef=treble-8
V: 13 clef=treble-8
V: 14 clef=treble-8
V: 15 clef=treble-8
V: 16 clef=treble-8
V: 17 clef=treble-8
V: 18 clef=treble-8
V: 19 clef=bass
V: 20 clef=bass
V: 21 clef=bass
V: 22 clef=bass
V: 23 clef=bass
V: 24 clef=bass
K: C
[V:1] c8 | 
[V:2] z8 | 
[V:3] z8 | 
[V:4] z8 | 
[V:5] z8 | 
[V:6] z8 | 
[V:7] z8 | 
[V:8] z8 | 
[V:9] z8 | 
[V:10] z8 | 
[V:11] z8 | 
[V:12] z8 | 
[V:13] z8 | 
[V:14] z8 | 
[V:15] z8 | 
[V:16] z8 | 
[V:17] z8 | 
[V:18] z8 | 
[V:19] z8 | 
[V:20] z8 | 
[V:21] z8 | 
[V:22] z8 | 
[V:23] z8 | 
[V:24] z8 | 
[V:1] c4c4 | 
[V:2] z8 | 
[V:3] z8 | 
[V:4] z8 | 
[V:5] z8 | 
[V:6] z8 | 
[V:7] z8 | 
[V:8] z8 | 
[V:9] z8 | 
[V:10] z8 | 
[V:11] z8 | 
[V:12] z8 | 
[V:13] z8 | 
[V:14] z8 | 
[V:15] z8 | 
[V:16] z8 | 
[V:17] z8 | 
[V:18] z8 | 
[V:19] z8 | 
[V:20] z8 | 
[V:21] z8 | 
[V:22] z8 | 
[V:23] z8 | 
[V:24] z8 | 
[V:1] A3GFEF2- | 
[V:2] c8 | 
[V:3] z8 | 
[V:4] z8 | 
[V:5] z8 | 
[V:6] z8 | 
[V:7] z8 | 
[V:8] z8 | 
[V:9] z8 | 
[V:10] z8 | 
[V:11] z8 | 
[V:12] z8 | 
[V:13] z8 | 
[V:14] z8 | 
[V:15] z8 | 
[V:16] z8 | 
[V:17] z8 | 
[V:18] z8 | 
[V:19] z8 | 
[V:20] z8 | 
[V:21] z8 | 
[V:22] z8 | 
[V:23] z8 | 
[V:24] z8 | 
[V:1] F2EDC4 | 
[V:2] c4c4 | 
[V:3] z8 | 
[V:4] z8 | 
[V:5] z8 | 
[V:6] z8 | 
[V:7] z8 | 
[V:8] z8 | 
[V:9] z8 | 
[V:10] z8 | 
[V:11] z8 | 
[V:12] z8 | 
[V:13] z8 | 
[V:14] z8 | 
[V:15] z8 | 
[V:16] z8 | 
[V:17] z8 | 
[V:18] z8 | 
[V:19] z8 | 
[V:20] z8 | 
[V:21] z8 | 
[V:22] z8 | 
[V:23] z8 | 
[V:24] z8 | 
[V:1] F4F4- | 
[V:2] A3GFEF2- | 
[V:3] c8 | 
[V:4] z8 | 
[V:5] z8 | 
[V:6] z8 | 
[V:7] z8 | 
[V:8] z8 | 
[V:9] z8 | 
[V:10] z8 | 
[V:11] z8 | 
[V:12] z8 | 
[V:13] z8 | 
[V:14] z8 | 
[V:15] z8 | 
[V:16] z8 | 
[V:17] z8 | 
[V:18] z8 | 
[V:19] z8 | 
[V:20] z8 | 
[V:21] z8 | 
[V:22] z8 | 
[V:23] z8 | 
[V:24] z8 | 
[V:1] F2F2G2G2 | 
[V:2] F2EDC4 | 
[V:3] c4c4 | 
[V:4] z8 | 
[V:5] z8 | 
[V:6] z8 | 
[V:7] z8 | 
[V:8] z8 | 
[V:9] z8 | 
[V:10] z8 | 
[V:11] z8 | 
[V:12] z8 | 
[V:13] z8 | 
[V:14] z8 | 
[V:15] z8 | 
[V:16] z8 | 
[V:17] z8 | 
[V:18] z8 | 
[V:19] z8 | 
[V:20] z8 | 
[V:21] z8 | 
[V:22] z8 | 
[V:23] z8 | 
[V:24] z8 | 
[V:1] F3GAFc2 | 
[V:2] F4F4- | 
[V:3] A3GFEF2- | 
[V:4] c8 | 
[V:5] z8 | 
[V:6] z8 | 
[V:7] z8 | 
[V:8] z8 | 
[V:9] z8 | 
[V:10] z8 | 
[V:11] z8 | 
[V:12] z8 | 
[V:13] z8 | 
[V:14] z8 | 
[V:15] z8 | 
[V:16] z8 | 
[V:17] z8 | 
[V:18] z8 | 
[V:19] z8 | 
[V:20] z8 | 
[V:21] z8 | 
[V:22] z8 | 
[V:23] z8 | 
[V:24] z8 | 
[V:1] F2f4e2 | 
[V:2] F2F2G2G2 | 
[V:3] F2EDC4 | 
[V:4] c4c4 | 
[V:5] z8 | 
[V:6] z8 | 
[V:7] z8 | 
[V:8] z8 | 
[V:9] z8 | 
[V:10] z8 | 
[V:11] z8 | 
[V:12] z8 | 
[V:13] z8 | 
[V:14] z8 | 
[V:15] z8 | 
[V:16] z8 | 
[V:17] z8 | 
[V:18] z8 | 
[V:19] z8 | 
[V:20] z8 | 
[V:21] z8 | 
[V:22] z8 | 
[V:23] z8 | 
[V:24] z8 | 
[V:1] f4F2A2- | 
[V:2] F3GAFc2 | 
[V:3] F4F4- | 
[V:4] A3GFEF2- | 
[V:5] c8 | 
[V:6] z8 | 
[V:7] z8 | 
[V:8] z8 | 
[V:9] z8 | 
[V:10] z8 | 
[V:11] z8 | 
[V:12] z8 | 
[V:13] z8 | 
[V:14] z8 | 
[V:15] z8 | 
[V:16] z8 | 
[V:17] z8 | 
[V:18] z8 | 
[V:19] z8 | 
[V:20] z8 | 
[V:21] z8 | 
[V:22] z8 | 
[V:23] z8 | 
[V:24] z8 | 
[V:1] A2GFc2c2 | 
[V:2] F2f4e2 | 
[V:3] F2F2G2G2 | 
[V:4] F2EDC4 | 
[V:5] c4c4 | 
[V:6] z8 | 
[V:7] z8 | 
[V:8] z8 | 
[V:9] z8 | 
[V:10] z8 | 
[V:11] z8 | 
[V:12] z8 | 
[V:13] z8 | 
[V:14] z8 | 
[V:15] z8 | 
[V:16] z8 | 
[V:17] z8 | 
[V:18] z8 | 
[V:19] z8 | 
[V:20] z8 | 
[V:21] z8 | 
[V:22] z8 | 
[V:23] z8 | 
[V:24] z8 | 
[V:1] F8 | 
[V:2] f4F2A2- | 
[V:3] F3GAFc2 | 
[V:4] F4F4- | 
[V:5] A3GFEF2- | 
[V:6] c8 | 
[V:7] z8 | 
[V:8] z8 | 
[V:9] z8 | 
[V:10] z8 | 
[V:11] z8 | 
[V:12] z8 | 
[V:13] z8 | 
[V:14] z8 | 
[V:15] z8 | 
[V:16] z8 | 
[V:17] z8 | 
[V:18] z8 | 
[V:19] z8 | 
[V:20] z8 | 
[V:21] z8 | 
[V:22] z8 | 
[V:23] z8 | 
[V:24] z8 | 
[V:1] z8 | 
[V:2] A2GFc2c2 | 
[V:3] F2f4e2 | 
[V:4] F2F2G2G2 | 
[V:5] F2EDC4 | 
[V:6] c4c4 | 
[V:7] z8 | 
[V:8] z8 | 
[V:9] z8 | 
[V:10] z8 | 
[V:11] z8 | 
[V:12] z8 | 
[V:13] z8 | 
[V:14] z8 | 
[V:15] z8 | 
[V:16] z8 | 
[V:17] z8 | 
[V:18] z8 | 
[V:19] z8 | 
[V:20] z8 | 
[V:21] z8 | 
[V:22] z8 | 
[V:23] z8 | 
[V:24] z8 | 
[V:1] z2c2c2c2 | 
[V:2] F8 | 
[V:3] f4F2A2- | 
[V:4] F3GAFc2 | 
[V:5] F4F4- | 
[V:6] A3GFEF2- | 
[V:7] z8 | 
[V:8] z8 | 
[V:9] z8 | 
[V:10] z8 | 
[V:11] z8 | 
[V:12] z8 | 
[V:13] z8 | 
[V:14] z8 | 
[V:15] z8 | 
[V:16] z8 | 
[V:17] z8 | 
[V:18] z8 | 
[V:19] z8 | 
[V:20] z8 | 
[V:21] z8 | 
[V:22] z8 | 
[V:23] z8 | 
[V:24] z8 | 
[V:1] d4e4 | 
[V:2] z8 | 
[V:3] A2GFc2c2 | 
[V:4] F2f4e2 | 
[V:5] F2F2G2G2 | 
[V:6] F2EDC4 | 
[V:7] z8 | 
[V:8] z8 | 
[V:9] z8 | 
[V:10] z8 | 
[V:11] z8 | 
[V:12] z8 | 
[V:13] z8 | 
[V:14] z8 | 
[V:15] z8 | 
[V:16] z8 | 
[V:17] z8 | 
[V:18] z8 | 
[V:19] z8 | 
[V:20] z8 | 
[V:21] z8 | 
[V:22] z8 | 
[V:23] z8 | 
[V:24] z8 | 
[V:1] c2A4GF | 
[V:2] z2c2c2c2 | 
[V:3] F8 | 
[V:4] f4F2A2- | 
[V:5] F3GAFc2 | 
[V:6] F4F4- | 
[V:7] z2f4e2 | 
[V:8] z8 | 
[V:9] z8 | 
[V:10] z8 | 
[V:11] z8 | 
[V:12] z8 | 
[V:13] z8 | 
[V:14] z8 | 
[V:15] z8 | 
[V:16] z8 | 
[V:17] z8 | 
[V:18] z8 | 
[V:19] z8 | 
[V:20] z8 | 
[V:21] z8 | 
[V:22] z8 | 
[V:23] z8 | 
[V:24] z8 | 
[V:1] F4E2C2 | 
[V:2] d4e4 | 
[V:3] z8 | 
[V:4] A2GFc2c2 | 
[V:5] F2f4e2 | 
[V:6] F2F2G2G2 | 
[V:7] d2d2c3B | 
[V:8] z8 | 
[V:9] z8 | 
[V:10] z8 | 
[V:11] z8 | 
[V:12] z8 | 
[V:13] z8 | 
[V:14] z8 | 
[V:15] z8 | 
[V:16] z8 | 
[V:17] z8 | 
[V:18] z8 | 
[V:19] z8 | 
[V:20] z8 | 
[V:21] z8 | 
[V:22] z8 | 
[V:23] z8 | 
[V:24] z8 | 
[V:1] c4c2c2- | 
[V:2] c2A4GF | 
[V:3] z2c2c2c2 | 
[V:4] F8 | 
[V:5] f4F2A2- | 
[V:6] F3GAFc2 | 
[V:7] AGF4f2 | 
[V:8] z2f4e2 | 
[V:9] z8 | 
[V:10] z8 | 
[V:11] z8 | 
[V:12] z8 | 
[V:13] z8 | 
[V:14] z8 | 
[V:15] z8 | 
[V:16] z8 | 
[V:17] z8 | 
[V:18] z8 | 
[V:19] z8 | 
[V:20] z8 | 
[V:21] z8 | 
[V:22] z8 | 
[V:23] z8 | 
[V:24] z8 | 
[V:1] c2BAcde2- | 
[V:2] F4E2C2 | 
[V:3] d4e4 | 
[V:4] z8 | 
[V:5] A2GFc2c2 | 
[V:6] F2f4e2 | 
[V:7] f2f2g4 | 
[V:8] d2d2c3B | 
[V:9] z8 | 
[V:10] z8 | 
[V:11] z8 | 
[V:12] z8 | 
[V:13] z8 | 
[V:14] z8 | 
[V:15] z8 | 
[V:16] z8 | 
[V:17] z8 | 
[V:18] z8 | 
[V:19] z8 | 
[V:20] z8 | 
[V:21] z8 | 
[V:22] z8 | 
[V:23] z8 | 
[V:24] z8 | 
[V:1] e2dcc2A2- | 
[V:2] c4c2c2- | 
[V:3] c2A4GF | 
[V:4] z2c2c2c2 | 
[V:5] F8 | 
[V:6] f4F2A2- | 
[V:7] a4a3g | 
[V:8] AGF4f2 | 
[V:9] z2f4e2 | 
[V:10] z8 | 
[V:11] z8 | 
[V:12] z8 | 
[V:13] z8 | 
[V:14] z8 | 
[V:15] z8 | 
[V:16] z8 | 
[V:17] z8 | 
[V:18] z8 | 
[V:19] z8 | 
[V:20] z8 | 
[V:21] z8 | 
[V:22] z8 | 
[V:23] z8 | 
[V:24] z8 | 
[V:1] AB/c/d2G2C2 | 
[V:2] c2BAcde2- | 
[V:3] F4E2C2 | 
[V:4] d4e4 | 
[V:5] z8 | 
[V:6] A2GFc2c2 | 
[V:7] agf4e2 | 
[V:8] f2f2g4 | 
[V:9] d2d2c3B | 
[V:10] z8 | 
[V:11] z8 | 
[V:12] z8 | 
[V:13] z8 | 
[V:14] z8 | 
[V:15] z8 | 
[V:16] z8 | 
[V:17] z8 | 
[V:18] z8 | 
[V:19] z8 | 
[V:20] z8 | 
[V:21] z8 | 
[V:22] z8 | 
[V:23] z8 | 
[V:24] z8 | 
[V:1] z8 | 
[V:2] e2dcc2A2- | 
[V:3] c4c2c2- | 
[V:4] c2A4GF | 
[V:5] z2c2c2c2 | 
[V:6] F8 | 
[V:7] f4F4 | 
[V:8] a4a3g | 
[V:9] AGF4f2 | 
[V:10] z2f4e2 | 
[V:11] z8 | 
[V:12] z8 | 
[V:13] z8 | 
[V:14] z8 | 
[V:15] z8 | 
[V:16] z8 | 
[V:17] z8 | 
[V:18] z8 | 
[V:19] z8 | 
[V:20] z8 | 
[V:21] z8 | 
[V:22] z8 | 
[V:23] z8 | 
[V:24] z8 | 
[V:1] z8 | 
[V:2] AB/c/d2G2C2 | 
[V:3] c2BAcde2- | 
[V:4] F4E2C2 | 
[V:5] d4e4 | 
[V:6] z8 | 
[V:7] z8 | 
[V:8] agf4e2 | 
[V:9] f2f2g4 | 
[V:10] d2d2c3B | 
[V:11] z8 | 
[V:12] z8 | 
[V:13] z8 | 
[V:14] z8 | 
[V:15] z8 | 
[V:16] z8 | 
[V:17] z8 | 
[V:18] z8 | 
[V:19] z8 | 
[V:20] z8 | 
[V:21] z8 | 
[V:22] z8 | 
[V:23] z8 | 
[V:24] z8 | 
[V:1] z8 | 
[V:2] z8 | 
[V:3] e2dcc2A2- | 
[V:4] c4c2c2- | 
[V:5] c2A4GF | 
[V:6] z2c2c2c2 | 
[V:7] z8 | 
[V:8] f4F4 | 
[V:9] a4a3g | 
[V:10] AGF4f2 | 
[V:11] z2f4e2 | 
[V:12] z8 | 
[V:13] z8 | 
[V:14] z8 | 
[V:15] z8 | 
[V:16] z8 | 
[V:17] z8 | 
[V:18] z8 | 
[V:19] z8 | 
[V:20] z8 | 
[V:21] z8 | 
[V:22] z8 | 
[V:23] z8 | 
[V:24] z8 | 
[V:1] z8 | 
[V:2] z8 | 
[V:3] AB/c/d2G2C2 | 
[V:4] c2BAcde2- | 
[V:5] F4E2C2 | 
[V:6] d4e4 | 
[V:7] z8 | 
[V:8] z8 | 
[V:9] agf4e2 | 
[V:10] f2f2g4 | 
[V:11] d2d2c3B | 
[V:12] z8 | 
[V:13] z8 | 
[V:14] z8 | 
[V:15] z8 | 
[V:16] z8 | 
[V:17] z8 | 
[V:18] z8 | 
[V:19] z8 | 
[V:20] z8 | 
[V:21] z8 | 
[V:22] z8 | 
[V:23] z8 | 
[V:24] z8 | 
[V:1] z8 | 
[V:2] z8 | 
[V:3] z8 | 
[V:4] e2dcc2A2- | 
[V:5] c4c2c2- | 
[V:6] c2A4GF | 
[V:7] z8 | 
[V:8] z8 | 
[V:9] f4F4 | 
[V:10] a4a3g | 
[V:11] AGF4f2 | 
[V:12] z2f4e2 | 
[V:13] z8 | 
[V:14] z8 | 
[V:15] z8 | 
[V:16] z8 | 
[V:17] z8 | 
[V:18] z8 | 
[V:19] z8 | 
[V:20] z8 | 
[V:21] z8 | 
[V:22] z8 | 
[V:23] z8 | 
[V:24] z8 | 
[V:1] z4z2c2- | 
[V:2] z8 | 
[V:3] z8 | 
[V:4] AB/c/d2G2C2 | 
[V:5] c2BAcde2- | 
[V:6] F4E2C2 | 
[V:7] z4z2c2- | 
[V:8] z8 | 
[V:9] z8 | 
[V:10] agf4e2 | 
[V:11] f2f2g4 | 
[V:12] d2d2c3B | 
[V:13] z8 | 
[V:14] z8 | 
[V:15] z8 | 
[V:16] z8 | 
[V:17] z8 | 
[V:18] z8 | 
[V:19] z8 | 
[V:20] z8 | 
[V:21] z8 | 
[V:22] z8 | 
[V:23] z8 | 
[V:24] z8 | 
[V:1] c2c2f4 | 
[V:2] z8 | 
[V:3] z8 | 
[V:4] z8 | 
[V:5] e2dcc2A2- | 
[V:6] c4c2c2- | 
[V:7] c2c2c4 | 
[V:8] z8 | 
[V:9] z8 | 
[V:10] f4F4 | 
[V:11] a4a3g | 
[V:12] AGF4f2 | 
[V:13] z8 | 
[V:14] z8 | 
[V:15] z8 | 
[V:16] z8 | 
[V:17] z8 | 
[V:18] z8 | 
[V:19] z8 | 
[V:20] z8 | 
[V:21] z8 | 
[V:22] z8 | 
[V:23] z8 | 
[V:24] z8 | 
[V:1] d4e3d | 
[V:2] z4z2c2- | 
[V:3] z8 | 
[V:4] z8 | 
[V:5] AB/c/d2G2C2 | 
[V:6] c2BAcde2- | 
[V:7] d4c3B | 
[V:8] z4z2c2- | 
[V:9] z8 | 
[V:10] z8 | 
[V:11] agf4e2 | 
[V:12] f2f2g4 | 
[V:13] z8 | 
[V:14] z8 | 
[V:15] z8 | 
[V:16] z8 | 
[V:17] z8 | 
[V:18] z8 | 
[V:19] z8 | 
[V:20] z8 | 
[V:21] z8 | 
[V:22] z8 | 
[V:23] z8 | 
[V:24] z8 | 
[V:1] cBAGA2F2- | 
[V:2] c2c2f4 | 
[V:3] z8 | 
[V:4] z8 | 
[V:5] z8 | 
[V:6] e2dcc2A2- | 
[V:7] AGA4GF | 
[V:8] c2c2c4 | 
[V:9] z8 | 
[V:10] z8 | 
[V:11] f4F4 | 
[V:12] a4a3g | 
[V:13] z8 | 
[V:14] z8 | 
[V:15] z8 | 
[V:16] z8 | 
[V:17] z8 | 
[V:18] z8 | 
[V:19] z8 | 
[V:20] z8 | 
[V:21] z8 | 
[V:22] z8 | 
[V:23] z8 | 
[V:24] z8 | 
[V:1] FGA4GF | 
[V:2] d4e3d | 
[V:3] z4z2c2- | 
[V:4] z8 | 
[V:5] z8 | 
[V:6] AB/c/d2G2C2 | 
[V:7] f4g2e2 | 
[V:8] d4c3B | 
[V:9] z4z2c2- | 
[V:10] z8 | 
[V:11] z8 | 
[V:12] agf4e2 | 
[V:13] z8 | 
[V:14] z8 | 
[V:15] z8 | 
[V:16] z8 | 
[V:17] z8 | 
[V:18] z8 | 
[V:19] z8 | 
[V:20] z8 | 
[V:21] z8 | 
[V:22] z8 | 
[V:23] z8 | 
[V:24] z8 | 
[V:1] c3BAGc2- | 
[V:2] cBAGA2F2- | 
[V:3] c2c2f4 | 
[V:4] z8 | 
[V:5] z8 | 
[V:6] z8 | 
[V:7] a4f4 | 
[V:8] AGA4GF | 
[V:9] c2c2c4 | 
[V:10] z8 | 
[V:11] z8 | 
[V:12] f4F4 | 
[V:13] z8 | 
[V:14] z8 | 
[V:15] z8 | 
[V:16] z8 | 
[V:17] z8 | 
[V:18] z8 | 
[V:19] z8 | 
[V:20] z8 | 
[V:21] z8 | 
[V:22] z8 | 
[V:23] z8 | 
[V:24] z8 | 
[V:1] cFF4E2 | 
[V:2] FGA4GF | 
[V:3] d4e3d | 
[V:4] z4z2c2- | 
[V:5] z8 | 
[V:6] z8 | 
[V:7] f2F2c4 | 
[V:8] f4g2e2 | 
[V:9] d4c3B | 
[V:10] z4z2c2- | 
[V:11] z8 | 
[V:12] z8 | 
[V:13] z8 | 
[V:14] z8 | 
[V:15] z8 | 
[V:16] z8 | 
[V:17] z8 | 
[V:18] z8 | 
[V:19] z8 | 
[V:20] z8 | 
[V:21] z8 | 
[V:22] z8 | 
[V:23] z8 | 
[V:24] z8 | 
[V:1] F6ED | 
[V:2] c3BAGc2- | 
[V:3] cBAGA2F2- | 
[V:4] c2c2f4 | 
[V:5] z8 | 
[V:6] z8 | 
[V:7] F8 | 
[V:8] a4f4 | 
[V:9] AGA4GF | 
[V:10] c2c2c4 | 
[V:11] z8 | 
[V:12] z8 | 
[V:13] z8 | 
[V:14] z8 | 
[V:15] z8 | 
[V:16] z8 | 
[V:17] z8 | 
[V:18] z8 | 
[V:19] z8 | 
[V:20] z8 | 
[V:21] z8 | 
[V:22] z8 | 
[V:23] z8 | 
[V:24] z8 | 
[V:1] A4z4 | 
[V:2] cFF4E2 | 
[V:3] FGA4GF | 
[V:4] d4e3d | 
[V:5] z4z2c2- | 
[V:6] z8 | 
[V:7] z8 | 
[V:8] f2F2c4 | 
[V:9] f4g2e2 | 
[V:10] d4c3B | 
[V:11] z4z2c2- | 
[V:12] z8 | 
[V:13] z8 | 
[V:14] z8 | 
[V:15] z8 | 
[V:16] z8 | 
[V:17] z8 | 
[V:18] z8 | 
[V:19] z8 | 
[V:20] z8 | 
[V:21] z8 | 
[V:22] z8 | 
[V:23] z8 | 
[V:24] z8 | 
[V:1] z8 | 
[V:2] F6ED | 
[V:3] c3BAGc2- | 
[V:4] cBAGA2F2- | 
[V:5] c2c2f4 | 
[V:6] z8 | 
[V:7] z8 | 
[V:8] F8 | 
[V:9] a4f4 | 
[V:10] AGA4GF | 
[V:11] c2c2c4 | 
[V:12] z8 | 
[V:13] z8 | 
[V:14] z8 | 
[V:15] z8 | 
[V:16] z8 | 
[V:17] z8 | 
[V:18] z8 | 
[V:19] z8 | 
[V:20] z8 | 
[V:21] z8 | 
[V:22] z8 | 
[V:23] z8 | 
[V:24] z8 | 
[V:1] z8 | 
[V:2] A4z4 | 
[V:3] cFF4E2 | 
[V:4] FGA4GF | 
[V:5] d4e3d | 
[V:6] z4z2c2- | 
[V:7] z8 | 
[V:8] z8 | 
[V:9] f2F2c4 | 
[V:10] f4g2e2 | 
[V:11] d4c3B | 
[V:12] z4z2c2- | 
[V:13] z8 | 
[V:14] z8 | 
[V:15] z8 | 
[V:16] z8 | 
[V:17] z8 | 
[V:18] z8 | 
[V:19] z8 | 
[V:20] z8 | 
[V:21] z8 | 
[V:22] z8 | 
[V:23] z8 | 
[V:24] z8 | 
[V:1] z8 | 
[V:2] z8 | 
[V:3] F6ED | 
[V:4] c3BAGc2- | 
[V:5] cBAGA2F2- | 
[V:6] c2c2f4 | 
[V:7] z8 | 
[V:8] z8 | 
[V:9] F8 | 
[V:10] a4f4 | 
[V:11] AGA4GF | 
[V:12] c2c2c4 | 
[V:13] z8 | 
[V:14] z8 | 
[V:15] z8 | 
[V:16] z8 | 
[V:17] z8 | 
[V:18] z8 | 
[V:19] z8 | 
[V:20] z8 | 
[V:21] z8 | 
[V:22] z8 | 
[V:23] z8 | 
[V:24] z8 | 
[V:1] z8 | 
[V:2] z8 | 
[V:3] A4z4 | 
[V:4] cFF4E2 | 
[V:5] FGA4GF | 
[V:6] d4e3d | 
[V:7] z4z2A2- | 
[V:8] z8 | 
[V:9] z8 | 
[V:10] f2F2c4 | 
[V:11] f4g2e2 | 
[V:12] d4c3B | 
[V:13] z8 | 
[V:14] z8 | 
[V:15] z8 | 
[V:16] z8 | 
[V:17] z8 | 
[V:18] z8 | 
[V:19] z8 | 
[V:20] z8 | 
[V:21] z8 | 
[V:22] z8 | 
[V:23] z8 | 
[V:24] z8 | 
[V:1] z8 | 
[V:2] z8 | 
[V:3] z8 | 
[V:4] F6ED | 
[V:5] c3BAGc2- | 
[V:6] cBAGA2F2- | 
[V:7] A2c4A2- | 
[V:8] z8 | 
[V:9] z8 | 
[V:10] F8 | 
[V:11] a4f4 | 
[V:12] AGA4GF | 
[V:13] z8 | 
[V:14] z8 | 
[V:15] z8 | 
[V:16] z8 | 
[V:17] z8 | 
[V:18] z8 | 
[V:19] z8 | 
[V:20] z8 | 
[V:21] z8 | 
[V:22] z8 | 
[V:23] z8 | 
[V:24] z8 | 
[V:1] z8 | 
[V:2] z8 | 
[V:3] z8 | 
[V:4] A4z4 | 
[V:5] cFF4E2 | 
[V:6] FGA4GF | 
[V:7] A2F2z4 | 
[V:8] z4z2A2- | 
[V:9] z8 | 
[V:10] z8 | 
[V:11] f2F2c4 | 
[V:12] f4g2e2 | 
[V:13] z8 | 
[V:14] z8 | 
[V:15] z8 | 
[V:16] z8 | 
[V:17] z8 | 
[V:18] z8 | 
[V:19] z8 | 
[V:20] z8 | 
[V:21] z8 | 
[V:22] z8 | 
[V:23] z8 | 
[V:24] z8 | 
[V:1] z8 | 
[V:2] z8 | 
[V:3] z8 | 
[V:4] z8 | 
[V:5] F6ED | 
[V:6] c3BAGc2- | 
[V:7] z8 | 
[V:8] A2c4A2- | 
[V:9] z8 | 
[V:10] z8 | 
[V:11] F8 | 
[V:12] a4f4 | 
[V:13] c6c2 | 
[V:14] z8 | 
[V:15] z8 | 
[V:16] z8 | 
[V:17] z8 | 
[V:18] z8 | 
[V:19] z8 | 
[V:20] z8 | 
[V:21] z8 | 
[V:22] z8 | 
[V:23] z8 | 
[V:24] z8 | 
[V:1] z8 | 
[V:2] z8 | 
[V:3] z8 | 
[V:4] z8 | 
[V:5] A4z4 | 
[V:6] cFF4E2 | 
[V:7] z8 | 
[V:8] A2F2z4 | 
[V:9] z4z2A2- | 
[V:10] z8 | 
[V:11] z8 | 
[V:12] f2F2c4 | 
[V:13] A4c3B | 
[V:14] z8 | 
[V:15] z8 | 
[V:16] z8 | 
[V:17] z8 | 
[V:18] z8 | 
[V:19] z8 | 
[V:20] z8 | 
[V:21] z8 | 
[V:22] z8 | 
[V:23] z8 | 
[V:24] z8 | 
[V:1] z8 | 
[V:2] z8 | 
[V:3] z8 | 
[V:4] z8 | 
[V:5] z8 | 
[V:6] F6ED | 
[V:7] z4z2c2 | 
[V:8] z8 | 
[V:9] A2c4A2- | 
[V:10] z8 | 
[V:11] z8 | 
[V:12] F8 | 
[V:13] AGF3EC2 | 
[V:14] c6c2 | 
[V:15] z8 | 
[V:16] z8 | 
[V:17] z8 | 
[V:18] z8 | 
[V:19] z8 | 
[V:20] z8 | 
[V:21] z8 | 
[V:22] z8 | 
[V:23] z8 | 
[V:24] z8 | 
[V:1] z8 | 
[V:2] z8 | 
[V:3] z8 | 
[V:4] z8 | 
[V:5] z8 | 
[V:6] A4z4 | 
[V:7] c2BAe2c2- | 
[V:8] z8 | 
[V:9] A2F2z4 | 
[V:10] z4z2A2- | 
[V:11] z8 | 
[V:12] z8 | 
[V:13] D4C4 | 
[V:14] A4c3B | 
[V:15] z8 | 
[V:16] z8 | 
[V:17] z8 | 
[V:18] z8 | 
[V:19] z8 | 
[V:20] z8 | 
[V:21] z8 | 
[V:22] z8 | 
[V:23] z8 | 
[V:24] z8 | 
[V:1] z8 | 
[V:2] z8 | 
[V:3] z8 | 
[V:4] z8 | 
[V:5] z8 | 
[V:6] z8 | 
[V:7] c2f4e2 | 
[V:8] z4z2c2 | 
[V:9] z8 | 
[V:10] A2c4A2- | 
[V:11] z8 | 
[V:12] z8 | 
[V:13] z8 | 
[V:14] AGF3EC2 | 
[V:15] c6c2 | 
[V:16] z8 | 
[V:17] z8 | 
[V:18] z8 | 
[V:19] z8 | 
[V:20] z8 | 
[V:21] z8 | 
[V:22] z8 | 
[V:23] z8 | 
[V:24] z8 | 
[V:1] z8 | 
[V:2] z8 | 
[V:3] z8 | 
[V:4] z8 | 
[V:5] z8 | 
[V:6] z8 | 
[V:7] f4z4 | 
[V:8] c2BAe2c2- | 
[V:9] z8 | 
[V:10] A2F2z4 | 
[V:11] z4z2A2- | 
[V:12] z8 | 
[V:13] z2F2G2A2- | 
[V:14] D4C4 | 
[V:15] A4c3B | 
[V:16] z8 | 
[V:17] z8 | 
[V:18] z8 | 
[V:19] z8 | 
[V:20] z8 | 
[V:21] z8 | 
[V:22] z8 | 
[V:23] z8 | 
[V:24] z8 | 
[V:1] z8 | 
[V:2] z8 | 
[V:3] z8 | 
[V:4] z8 | 
[V:5] z8 | 
[V:6] z8 | 
[V:7] z8 | 
[V:8] c2f4e2 | 
[V:9] z4z2c2 | 
[V:10] z8 | 
[V:11] A2c4A2- | 
[V:12] z8 | 
[V:13] ABc3Ae2- | 
[V:14] z8 | 
[V:15] AGF3EC2 | 
[V:16] c6c2 | 
[V:17] z8 | 
[V:18] z8 | 
[V:19] z8 | 
[V:20] z8 | 
[V:21] z8 | 
[V:22] z8 | 
[V:23] z8 | 
[V:24] z8 | 
[V:1] z8 | 
[V:2] z8 | 
[V:3] z8 | 
[V:4] z8 | 
[V:5] z8 | 
[V:6] z8 | 
[V:7] z8 | 
[V:8] f4z4 | 
[V:9] c2BAe2c2- | 
[V:10] z8 | 
[V:11] A2F2z4 | 
[V:12] z4z2A2- | 
[V:13] ed/c/d2e3d | 
[V:14] z2F2G2A2- | 
[V:15] D4C4 | 
[V:16] A4c3B | 
[V:17] z8 | 
[V:18] z8 | 
[V:19] z8 | 
[V:20] z8 | 
[V:21] z8 | 
[V:22] z8 | 
[V:23] z8 | 
[V:24] z8 | 
[V:1] z8 | 
[V:2] z8 | 
[V:3] z8 | 
[V:4] z8 | 
[V:5] z8 | 
[V:6] z8 | 
[V:7] z8 | 
[V:8] z8 | 
[V:9] c2f4e2 | 
[V:10] z4z2c2 | 
[V:11] z8 | 
[V:12] A2c4A2- | 
[V:13] cBA3GEG | 
[V:14] ABc3Ae2- | 
[V:15] z8 | 
[V:16] AGF3EC2 | 
[V:17] c6c2 | 
[V:18] z8 | 
[V:19] z8 | 
[V:20] z8 | 
[V:21] z8 | 
[V:22] z8 | 
[V:23] z8 | 
[V:24] z8 | 
[V:1] z8 | 
[V:2] z8 | 
[V:3] z8 | 
[V:4] z8 | 
[V:5] z8 | 
[V:6] z8 | 
[V:7] z8 | 
[V:8] z8 | 
[V:9] f4z4 | 
[V:10] c2BAe2c2- | 
[V:11] z8 | 
[V:12] A2F2z4 | 
[V:13] F4z2E2 | 
[V:14] ed/c/d2e3d | 
[V:15] z2F2G2A2- | 
[V:16] D4C4 | 
[V:17] A4c3B | 
[V:18] z8 | 
[V:19] z8 | 
[V:20] z8 | 
[V:21] z8 | 
[V:22] z8 | 
[V:23] z8 | 
[V:24] z8 | 
[V:1] z8 | 
[V:2] z8 | 
[V:3] z8 | 
[V:4] z8 | 
[V:5] z8 | 
[V:6] z8 | 
[V:7] z8 | 
[V:8] z8 | 
[V:9] z8 | 
[V:10] c2f4e2 | 
[V:11] z4z2c2 | 
[V:12] z8 | 
[V:13] F2F2C4 | 
[V:14] cBA3GEG | 
[V:15] ABc3Ae2- | 
[V:16] z8 | 
[V:17] AGF3EC2 | 
[V:18] c6c2 | 
[V:19] z8 | 
[V:20] z8 | 
[V:21] z8 | 
[V:22] z8 | 
[V:23] z8 | 
[V:24] z8 | 
[V:1] z8 | 
[V:2] z8 | 
[V:3] z8 | 
[V:4] z8 | 
[V:5] z8 | 
[V:6] z8 | 
[V:7] z8 | 
[V:8] z8 | 
[V:9] z8 | 
[V:10] f4z4 | 
[V:11] c2BAe2c2- | 
[V:12] z8 | 
[V:13] z8 | 
[V:14] F4z2E2 | 
[V:15] ed/c/d2e3d | 
[V:16] z2F2G2A2- | 
[V:17] D4C4 | 
[V:18] A4c3B | 
[V:19] z8 | 
[V:20] z8 | 
[V:21] z8 | 
[V:22] z8 | 
[V:23] z8 | 
[V:24] z8 | 
[V:1] z8 | 
[V:2] z8 | 
[V:3] z8 | 
[V:4] z8 | 
[V:5] z8 | 
[V:6] z8 | 
[V:7] z8 | 
[V:8] z8 | 
[V:9] z8 | 
[V:10] z8 | 
[V:11] c2f4e2 | 
[V:12] z4z2c2 | 
[V:13] z8 | 
[V:14] F2F2C4 | 
[V:15] cBA3GEG | 
[V:16] ABc3Ae2- | 
[V:17] z8 | 
[V:18] AGF3EC2 | 
[V:19] z8 | 
[V:20] z8 | 
[V:21] z8 | 
[V:22] z8 | 
[V:23] z8 | 
[V:24] z8 | 
[V:1] z8 | 
[V:2] z8 | 
[V:3] z8 | 
[V:4] z8 | 
[V:5] z8 | 
[V:6] z8 | 
[V:7] z8 | 
[V:8] z8 | 
[V:9] z8 | 
[V:10] z8 | 
[V:11] f4z4 | 
[V:12] c2BAe2c2- | 
[V:13] z4c3B | 
[V:14] z8 | 
[V:15] F4z2E2 | 
[V:16] ed/c/d2e3d | 
[V:17] z2F2G2A2- | 
[V:18] D4C4 | 
[V:19] z8 | 
[V:20] z8 | 
[V:21] z8 | 
[V:22] z8 | 
[V:23] z8 | 
[V:24] z8 | 
[V:1] z8 | 
[V:2] z8 | 
[V:3] z8 | 
[V:4] z8 | 
[V:5] z8 | 
[V:6] z8 | 
[V:7] z8 | 
[V:8] z8 | 
[V:9] z8 | 
[V:10] z8 | 
[V:11] z8 | 
[V:12] c2f4e2 | 
[V:13] cdc4C2 | 
[V:14] z8 | 
[V:15] F2F2C4 | 
[V:16] cBA3GEG | 
[V:17] ABc3Ae2- | 
[V:18] z8 | 
[V:19] z2F,2G,2A,2- | 
[V:20] z8 | 
[V:21] z8 | 
[V:22] z8 | 
[V:23] z8 | 
[V:24] z8 | 
[V:1] z8 | 
[V:2] z8 | 
[V:3] z8 | 
[V:4] z8 | 
[V:5] z8 | 
[V:6] z8 | 
[V:7] z8 | 
[V:8] z8 | 
[V:9] z8 | 
[V:10] z8 | 
[V:11] z8 | 
[V:12] f4z4 | 
[V:13] D2D2C4 | 
[V:14] z4c3B | 
[V:15] z8 | 
[V:16] F4z2E2 | 
[V:17] ed/c/d2e3d | 
[V:18] z2F2G2A2- | 
[V:19] A,2G,F,E,2A,,2 | 
[V:20] z8 | 
[V:21] z8 | 
[V:22] z8 | 
[V:23] z8 | 
[V:24] z8 | 
[V:1] z8 | 
[V:2] z8 | 
[V:3] z8 | 
[V:4] z8 | 
[V:5] z8 | 
[V:6] z8 | 
[V:7] z8 | 
[V:8] z8 | 
[V:9] z8 | 
[V:10] z8 | 
[V:11] z8 | 
[V:12] z8 | 
[V:13] z2c4c2 | 
[V:14] cdc4C2 | 
[V:15] z8 | 
[V:16] F2F2C4 | 
[V:17] cBA3GEG | 
[V:18] ABc3Ae2- | 
[V:19] z8 | 
[V:20] z2F,2G,2A,2- | 
[V:21] z8 | 
[V:22] z8 | 
[V:23] z8 | 
[V:24] z8 | 
[V:1] z2d2G2c2 | 
[V:2] z8 | 
[V:3] z8 | 
[V:4] z8 | 
[V:5] z8 | 
[V:6] z8 | 
[V:7] z8 | 
[V:8] z8 | 
[V:9] z8 | 
[V:10] z8 | 
[V:11] z8 | 
[V:12] z8 | 
[V:13] A2F2c4- | 
[V:14] D2D2C4 | 
[V:15] z4c3B | 
[V:16] z8 | 
[V:17] F4z2E2 | 
[V:18] ed/c/d2e3d | 
[V:19] z2F,2G,2A,2- | 
[V:20] A,2G,F,E,2A,,2 | 
[V:21] z8 | 
[V:22] z8 | 
[V:23] z8 | 
[V:24] z8 | 
[V:1] cBAGG2C2 | 
[V:2] z8 | 
[V:3] z8 | 
[V:4] z8 | 
[V:5] z8 | 
[V:6] z8 | 
[V:7] z8 | 
[V:8] z8 | 
[V:9] z8 | 
[V:10] z8 | 
[V:11] z8 | 
[V:12] z8 | 
[V:13] c2BAcBe2 | 
[V:14] z2c4c2 | 
[V:15] cdc4C2 | 
[V:16] z8 | 
[V:17] F2F2C4 | 
[V:18] cBA3GEG | 
[V:19] A,G,F,D,E,2A,,2 | 
[V:20] z8 | 
[V:21] z2F,2G,2A,2- | 
[V:22] z8 | 
[V:23] z8 | 
[V:24] z8 | 
[V:1] z2D2G2FE | 
[V:2] z2d2G2c2 | 
[V:3] z8 | 
[V:4] z8 | 
[V:5] z8 | 
[V:6] z8 | 
[V:7] z2A2e2c2 | 
[V:8] z8 | 
[V:9] z8 | 
[V:10] z8 | 
[V:11] z8 | 
[V:12] z8 | 
[V:13] f2d2e3A | 
[V:14] A2F2c4- | 
[V:15] D2D2C4 | 
[V:16] z4c3B | 
[V:17] z8 | 
[V:18] F4z2E2 | 
[V:19] z8 | 
[V:20] z2F,2G,2A,2- | 
[V:21] A,2G,F,E,2A,,2 | 
[V:22] z8 | 
[V:23] z8 | 
[V:24] z8 | 
[V:1] A4z4 | 
[V:2] cBAGG2C2 | 
[V:3] z8 | 
[V:4] z8 | 
[V:5] z8 | 
[V:6] z8 | 
[V:7] f4z4 | 
[V:8] z8 | 
[V:9] z8 | 
[V:10] z8 | 
[V:11] z8 | 
[V:12] z8 | 
[V:13] A4z4 | 
[V:14] c2BAcBe2 | 
[V:15] z2c4c2 | 
[V:16] cdc4C2 | 
[V:17] z8 | 
[V:18] F2F2C4 | 
[V:19] z2A,,2E,2C,2 | 
[V:20] A,G,F,D,E,2A,,2 | 
[V:21] z8 | 
[V:22] z2F,2G,2A,2- | 
[V:23] z8 | 
[V:24] z8 | 
[V:1] z8 | 
[V:2] z2D2G2FE | 
[V:3] z2d2G2c2 | 
[V:4] z8 | 
[V:5] z8 | 
[V:6] z8 | 
[V:7] z8 | 
[V:8] z2A2e2c2 | 
[V:9] z8 | 
[V:10] z8 | 
[V:11] z8 | 
[V:12] z8 | 
[V:13] z8 | 
[V:14] f2d2e3A | 
[V:15] A2F2c4- | 
[V:16] D2D2C4 | 
[V:17] z4c3B | 
[V:18] z8 | 
[V:19] F,4z2F,,2 | 
[V:20] z8 | 
[V:21] z2F,2G,2A,2- | 
[V:22] A,2G,F,E,2A,,2 | 
[V:23] z8 | 
[V:24] z8 | 
[V:1] z8 | 
[V:2] A4z4 | 
[V:3] cBAGG2C2 | 
[V:4] z8 | 
[V:5] z8 | 
[V:6] z8 | 
[V:7] z8 | 
[V:8] f4z4 | 
[V:9] z8 | 
[V:10] z8 | 
[V:11] z8 | 
[V:12] z8 | 
[V:13] z8 | 
[V:14] A4z4 | 
[V:15] c2BAcBe2 | 
[V:16] z2c4c2 | 
[V:17] cdc4C2 | 
[V:18] z8 | 
[V:19] F,,2F,,2C,4 | 
[V:20] z2A,,2E,2C,2 | 
[V:21] A,G,F,D,E,2A,,2 | 
[V:22] z8 | 
[V:23] z2F,2G,2A,2- | 
[V:24] z8 | 
[V:1] z8 | 
[V:2] z8 | 
[V:3] z2D2G2FE | 
[V:4] z2d2G2c2 | 
[V:5] z8 | 
[V:6] z8 | 
[V:7] z8 | 
[V:8] z8 | 
[V:9] z2A2e2c2 | 
[V:10] z8 | 
[V:11] z8 | 
[V:12] z8 | 
[V:13] z8 | 
[V:14] z8 | 
[V:15] f2d2e3A | 
[V:16] A2F2c4- | 
[V:17] D2D2C4 | 
[V:18] z4c3B | 
[V:19] z8 | 
[V:20] F,4z2F,,2 | 
[V:21] z8 | 
[V:22] z2F,2G,2A,2- | 
[V:23] A,2G,F,E,2A,,2 | 
[V:24] z8 | 
[V:1] z8 | 
[V:2] z8 | 
[V:3] A4z4 | 
[V:4] cBAGG2C2 | 
[V:5] z8 | 
[V:6] z8 | 
[V:7] z8 | 
[V:8] z8 | 
[V:9] f4z4 | 
[V:10] z8 | 
[V:11] z8 | 
[V:12] z8 | 
[V:13] z8 | 
[V:14] z8 | 
[V:15] A4z4 | 
[V:16] c2BAcBe2 | 
[V:17] z2c4c2 | 
[V:18] cdc4C2 | 
[V:19] z8 | 
[V:20] F,,2F,,2C,4 | 
[V:21] z2A,,2E,2C,2 | 
[V:22] A,G,F,D,E,2A,,2 | 
[V:23] z8 | 
[V:24] z2F,2G,2A,2- | 
[V:1] z8 | 
[V:2] z8 | 
[V:3] z8 | 
[V:4] z2D2G2FE | 
[V:5] z2d2G2c2 | 
[V:6] z8 | 
[V:7] z8 | 
[V:8] z8 | 
[V:9] z8 | 
[V:10] z2A2e2c2 | 
[V:11] z8 | 
[V:12] z8 | 
[V:13] z8 | 
[V:14] z8 | 
[V:15] z8 | 
[V:16] f2d2e3A | 
[V:17] A2F2c4- | 
[V:18] D2D2C4 | 
[V:19] z4z2A,,2 | 
[V:20] z8 | 
[V:21] F,4z2F,,2 | 
[V:22] z8 | 
[V:23] z2F,2G,2A,2- | 
[V:24] A,2G,F,E,2A,,2 | 
[V:1] z8 | 
[V:2] z8 | 
[V:3] z8 | 
[V:4] A4z4 | 
[V:5] cBAGG2C2 | 
[V:6] z8 | 
[V:7] z8 | 
[V:8] z8 | 
[V:9] z8 | 
[V:10] f4z4 | 
[V:11] z8 | 
[V:12] z8 | 
[V:13] z8 | 
[V:14] z8 | 
[V:15] z8 | 
[V:16] A4z4 | 
[V:17] c2BAcBe2 | 
[V:18] z2c4c2 | 
[V:19] C,2C,2C,4 | 
[V:20] z8 | 
[V:21] F,,2F,,2C,4 | 
[V:22] z2A,,2E,2C,2 | 
[V:23] A,G,F,D,E,2A,,2 | 
[V:24] z8 | 
[V:1] z8 | 
[V:2] z8 | 
[V:3] z8 | 
[V:4] z8 | 
[V:5] z2D2G2FE | 
[V:6] z2d2G2c2 | 
[V:7] z8 | 
[V:8] z8 | 
[V:9] z8 | 
[V:10] z8 | 
[V:11] z2A2e2c2 | 
[V:12] z8 | 
[V:13] z8 | 
[V:14] z8 | 
[V:15] z8 | 
[V:16] z8 | 
[V:17] f2d2e3A | 
[V:18] A2F2c4- | 
[V:19] D,4C,4 | 
[V:20] z4z2A,,2 | 
[V:21] z8 | 
[V:22] F,4z2F,,2 | 
[V:23] z8 | 
[V:24] z2F,2G,2A,2- | 
[V:1] A4G2E2 | 
[V:2] z8 | 
[V:3] z8 | 
[V:4] z8 | 
[V:5] A4z4 | 
[V:6] cBAGG2C2 | 
[V:7] f4e4 | 
[V:8] z8 | 
[V:9] z8 | 
[V:10] z8 | 
[V:11] f4z4 | 
[V:12] z8 | 
[V:13] z8 | 
[V:14] z8 | 
[V:15] z8 | 
[V:16] z8 | 
[V:17] A4z4 | 
[V:18] c2BAcBe2 | 
[V:19] z4C4 | 
[V:20] C,2C,2C,4 | 
[V:21] z8 | 
[V:22] F,,2F,,2C,4 | 
[V:23] z2A,,2E,2C,2 | 
[V:24] A,G,F,D,E,2A,,2 | 
[V:1] A2F2G2A2- | 
[V:2] z8 | 
[V:3] z8 | 
[V:4] z8 | 
[V:5] z8 | 
[V:6] z2D2G2FE | 
[V:7] d2f2e2f2 | 
[V:8] z8 | 
[V:9] z8 | 
[V:10] z8 | 
[V:11] z8 | 
[V:12] z2A2e2c2 | 
[V:13] z8 | 
[V:14] z8 | 
[V:15] z8 | 
[V:16] z8 | 
[V:17] z8 | 
[V:18] f2d2e3A | 
[V:19] A,3F,C3B, | 
[V:20] D,4C,4 | 
[V:21] z4z2A,,2 | 
[V:22] z8 | 
[V:23] F,4z2F,,2 | 
[V:24] z8 | 
[V:1] ABc3B/A/e2 | 
[V:2] A4G2E2 | 
[V:3] z8 | 
[V:4] z8 | 
[V:5] z8 | 
[V:6] A4z4 | 
[V:7] c8 | 
[V:8] f4e4 | 
[V:9] z8 | 
[V:10] z8 | 
[V:11] z8 | 
[V:12] f4z4 | 
[V:13] z8 | 
[V:14] z8 | 
[V:15] z8 | 
[V:16] z8 | 
[V:17] z8 | 
[V:18] A4z4 | 
[V:19] A,G,F,2G,2A,2- | 
[V:20] z4C4 | 
[V:21] C,2C,2C,4 | 
[V:22] z8 | 
[V:23] F,,2F,,2C,4 | 
[V:24] z2A,,2E,2C,2 | 
[V:1] f2d2e2A2 | 
[V:2] A2F2G2A2- | 
[V:3] z8 | 
[V:4] z8 | 
[V:5] z8 | 
[V:6] z8 | 
[V:7] z4z2c2- | 
[V:8] d2f2e2f2 | 
[V:9] z8 | 
[V:10] z8 | 
[V:11] z8 | 
[V:12] z8 | 
[V:13] z8 | 
[V:14] z8 | 
[V:15] z8 | 
[V:16] z8 | 
[V:17] z8 | 
[V:18] z8 | 
[V:19] A,G,A,_B,G,2F,2 | 
[V:20] A,3F,C3B, | 
[V:21] D,4C,4 | 
[V:22] z4z2A,,2 | 
[V:23] z8 | 
[V:24] F,4z2F,,2 | 
[V:1] A4z4 | 
[V:2] ABc3B/A/e2 | 
[V:3] A4G2E2 | 
[V:4] z8 | 
[V:5] z8 | 
[V:6] z8 | 
[V:7] c2BAe2c2 | 
[V:8] c8 | 
[V:9] f4e4 | 
[V:10] z8 | 
[V:11] z8 | 
[V:12] z8 | 
[V:13] z8 | 
[V:14] z8 | 
[V:15] z8 | 
[V:16] z8 | 
[V:17] z8 | 
[V:18] z8 | 
[V:19] z8 | 
[V:20] A,G,F,2G,2A,2- | 
[V:21] z4C4 | 
[V:22] C,2C,2C,4 | 
[V:23] z8 | 
[V:24] F,,2F,,2C,4 | 
[V:1] z8 | 
[V:2] f2d2e2A2 | 
[V:3] A2F2G2A2- | 
[V:4] z8 | 
[V:5] z8 | 
[V:6] z8 | 
[V:7] f4z2F2- | 
[V:8] z4z2c2- | 
[V:9] d2f2e2f2 | 
[V:10] z8 | 
[V:11] z8 | 
[V:12] z8 | 
[V:13] z8 | 
[V:14] z8 | 
[V:15] z8 | 
[V:16] z8 | 
[V:17] z8 | 
[V:18] z8 | 
[V:19] z2F,,2C,4 | 
[V:20] A,G,A,_B,G,2F,2 | 
[V:21] A,3F,C3B, | 
[V:22] D,4C,4 | 
[V:23] z4z2A,,2 | 
[V:24] z8 | 
[V:1] c3cc2A2 | 
[V:2] A4z4 | 
[V:3] ABc3B/A/e2 | 
[V:4] A4G2E2 | 
[V:5] z8 | 
[V:6] z8 | 
[V:7] FEA2E2A2- | 
[V:8] c2BAe2c2 | 
[V:9] c8 | 
[V:10] f4e4 | 
[V:11] z8 | 
[V:12] z8 | 
[V:13] z8 | 
[V:14] z8 | 
[V:15] z8 | 
[V:16] z8 | 
[V:17] z8 | 
[V:18] z8 | 
[V:19] F,,4z4 | 
[V:20] z8 | 
[V:21] A,G,F,2G,2A,2- | 
[V:22] z4C4 | 
[V:23] C,2C,2C,4 | 
[V:24] z8 | 
[V:1] z8 | 
[V:2] z8 | 
[V:3] f2d2e2A2 | 
[V:4] A2F2G2A2- | 
[V:5] z8 | 
[V:6] z8 | 
[V:7] AB/c/d2G2c2- | 
[V:8] f4z2F2- | 
[V:9] z4z2c2- | 
[V:10] d2f2e2f2 | 
[V:11] z8 | 
[V:12] z8 | 
[V:13] z8 | 
[V:14] z8 | 
[V:15] z8 | 
[V:16] z8 | 
[V:17] z8 | 
[V:18] z8 | 
[V:19] z8 | 
[V:20] z2F,,2C,4 | 
[V:21] A,G,A,_B,G,2F,2 | 
[V:22] A,3F,C3B, | 
[V:23] D,4C,4 | 
[V:24] z4z2A,,2 | 
[V:1] z8 | 
[V:2] c3cc2A2 | 
[V:3] A4z4 | 
[V:4] ABc3B/A/e2 | 
[V:5] A4G2E2 | 
[V:6] z8 | 
[V:7] cd/e/f2c4 | 
[V:8] FEA2E2A2- | 
[V:9] c2BAe2c2 | 
[V:10] c8 | 
[V:11] f4e4 | 
[V:12] z8 | 
[V:13] z8 | 
[V:14] z8 | 
[V:15] z8 | 
[V:16] z8 | 
[V:17] z8 | 
[V:18] z8 | 
[V:19] z8 | 
[V:20] F,,4z4 | 
[V:21] z8 | 
[V:22] A,G,F,2G,2A,2- | 
[V:23] z4C4 | 
[V:24] C,2C,2C,4 | 
[V:1] z4z2c2- | 
[V:2] z8 | 
[V:3] z8 | 
[V:4] f2d2e2A2 | 
[V:5] A2F2G2A2- | 
[V:6] z8 | 
[V:7] z2c3cc2 | 
[V:8] AB/c/d2G2c2- | 
[V:9] f4z2F2- | 
[V:10] z4z2c2- | 
[V:11] d2f2e2f2 | 
[V:12] z8 | 
[V:13] z8 | 
[V:14] z8 | 
[V:15] z8 | 
[V:16] z8 | 
[V:17] z8 | 
[V:18] z8 | 
[V:19] z8 | 
[V:20] z8 | 
[V:21] z2F,,2C,4 | 
[V:22] A,G,A,_B,G,2F,2 | 
[V:23] A,3F,C3B, | 
[V:24] D,4C,4 | 
[V:1] cBA2G2c2- | 
[V:2] z8 | 
[V:3] c3cc2A2 | 
[V:4] A4z4 | 
[V:5] ABc3B/A/e2 | 
[V:6] A4G2E2 | 
[V:7] F4z4 | 
[V:8] cd/e/f2c4 | 
[V:9] FEA2E2A2- | 
[V:10] c2BAe2c2 | 
[V:11] c8 | 
[V:12] f4e4 | 
[V:13] z4C4 | 
[V:14] z8 | 
[V:15] z8 | 
[V:16] z8 | 
[V:17] z8 | 
[V:18] z8 | 
[V:19] z8 | 
[V:20] z8 | 
[V:21] F,,4z4 | 
[V:22] z8 | 
[V:23] A,G,F,2G,2A,2- | 
[V:24] z4C4 | 
[V:1] cBAGG2z2 | 
[V:2] z4z2c2- | 
[V:3] z8 | 
[V:4] z8 | 
[V:5] f2d2e2A2 | 
[V:6] A2F2G2A2- | 
[V:7] f3fe2e2 | 
[V:8] z2c3cc2 | 
[V:9] AB/c/d2G2c2- | 
[V:10] f4z2F2- | 
[V:11] z4z2c2- | 
[V:12] d2f2e2f2 | 
[V:13] D2D2C2C2 | 
[V:14] z8 | 
[V:15] z8 | 
[V:16] z8 | 
[V:17] z8 | 
[V:18] z8 | 
[V:19] z4z2F,,2 | 
[V:20] z8 | 
[V:21] z8 | 
[V:22] z2F,,2C,4 | 
[V:23] A,G,A,_B,G,2F,2 | 
[V:24] A,3F,C3B, | 
[V:1] z8 | 
[V:2] cBA2G2c2- | 
[V:3] z8 | 
[V:4] c3cc2A2 | 
[V:5] A4z4 | 
[V:6] ABc3B/A/e2 | 
[V:7] defdg2c2 | 
[V:8] F4z4 | 
[V:9] cd/e/f2c4 | 
[V:10] FEA2E2A2- | 
[V:11] c2BAe2c2 | 
[V:12] c8 | 
[V:13] F3E/D/G2E2 | 
[V:14] z4C4 | 
[V:15] z8 | 
[V:16] z8 | 
[V:17] z8 | 
[V:18] z8 | 
[V:19] F,,2F,,2C,4 | 
[V:20] z8 | 
[V:21] z8 | 
[V:22] F,,4z4 | 
[V:23] z8 | 
[V:24] A,G,F,2G,2A,2- | 
[V:1] z8 | 
[V:2] cBAGG2z2 | 
[V:3] z4z2c2- | 
[V:4] z8 | 
[V:5] z8 | 
[V:6] f2d2e2A2 | 
[V:7] z8 | 
[V:8] f3fe2e2 | 
[V:9] z2c3cc2 | 
[V:10] AB/c/d2G2c2- | 
[V:11] f4z2F2- | 
[V:12] z4z2c2- | 
[V:13] A2F2z2c2 | 
[V:14] D2D2C2C2 | 
[V:15] z8 | 
[V:16] z8 | 
[V:17] z8 | 
[V:18] z8 | 
[V:19] z2F,2E,2A,2- | 
[V:20] z4z2F,,2 | 
[V:21] z8 | 
[V:22] z8 | 
[V:23] z2F,,2C,4 | 
[V:24] A,G,A,_B,G,2F,2 | 
[V:1] z2c2c2e2 | 
[V:2] z8 | 
[V:3] cBA2G2c2- | 
[V:4] z8 | 
[V:5] c3cc2A2 | 
[V:6] A4z4 | 
[V:7] z8 | 
[V:8] defdg2c2 | 
[V:9] F4z4 | 
[V:10] cd/e/f2c4 | 
[V:11] FEA2E2A2- | 
[V:12] c2BAe2c2 | 
[V:13] A3FG2A2 | 
[V:14] F3E/D/G2E2 | 
[V:15] z4C4 | 
[V:16] z8 | 
[V:17] z8 | 
[V:18] z8 | 
[V:19] A,G,F,D,E,2A,,2 | 
[V:20] F,,2F,,2C,4 | 
[V:21] z8 | 
[V:22] z8 | 
[V:23] F,,4z4 | 
[V:24] z8 | 
[V:1] f2d2e2A2 | 
[V:2] z8 | 
[V:3] cBAGG2z2 | 
[V:4] z4z2c2- | 
[V:5] z8 | 
[V:6] z8 | 
[V:7] z8 | 
[V:8] z8 | 
[V:9] f3fe2e2 | 
[V:10] z2c3cc2 | 
[V:11] AB/c/d2G2c2- | 
[V:12] f4z2F2- | 
[V:13] D4z2A2 | 
[V:14] A2F2z2c2 | 
[V:15] D2D2C2C2 | 
[V:16] z8 | 
[V:17] z8 | 
[V:18] z8 | 
[V:19] z8 | 
[V:20] z2F,2E,2A,2- | 
[V:21] z4z2F,,2 | 
[V:22] z8 | 
[V:23] z8 | 
[V:24] z2F,,2C,4 | 
[V:1] A4z4 | 
[V:2] z2c2c2e2 | 
[V:3] z8 | 
[V:4] cBA2G2c2- | 
[V:5] z8 | 
[V:6] z8 | 
[V:7] z8 | 
[V:8] z8 | 
[V:9] defdg2c2 | 
[V:10] F4z4 | 
[V:11] cd/e/f2c4 | 
[V:12] FEA2E2A2- | 
[V:13] A2A2c4 | 
[V:14] A3FG2A2 | 
[V:15] F3E/D/G2E2 | 
[V:16] z4C4 | 
[V:17] z8 | 
[V:18] z8 | 
[V:19] z8 | 
[V:20] A,G,F,D,E,2A,,2 | 
[V:21] F,,2F,,2C,4 | 
[V:22] z8 | 
[V:23] z8 | 
[V:24] F,,4z4 | 
[V:1] z8 | 
[V:2] f2d2e2A2 | 
[V:3] z8 | 
[V:4] cBAGG2z2 | 
[V:5] z4z2c2- | 
[V:6] z8 | 
[V:7] z8 | 
[V:8] z8 | 
[V:9] z8 | 
[V:10] f3fe2e2 | 
[V:11] z2c3cc2 | 
[V:12] AB/c/d2G2c2- | 
[V:13] A2A2c2c2 | 
[V:14] D4z2A2 | 
[V:15] A2F2z2c2 | 
[V:16] D2D2C2C2 | 
[V:17] z8 | 
[V:18] z8 | 
[V:19] z8 | 
[V:20] z8 | 
[V:21] z2F,2E,2A,2- | 
[V:22] z4z2F,,2 | 
[V:23] z8 | 
[V:24] z8 | 
[V:1] z8 | 
[V:2] A4z4 | 
[V:3] z2c2c2e2 | 
[V:4] z8 | 
[V:5] cBA2G2c2- | 
[V:6] z8 | 
[V:7] z8 | 
[V:8] z8 | 
[V:9] z8 | 
[V:10] defdg2c2 | 
[V:11] F4z4 | 
[V:12] cd/e/f2c4 | 
[V:13] F4z4 | 
[V:14] A2A2c4 | 
[V:15] A3FG2A2 | 
[V:16] F3E/D/G2E2 | 
[V:17] z4C4 | 
[V:18] z8 | 
[V:19] z8 | 
[V:20] z8 | 
[V:21] A,G,F,D,E,2A,,2 | 
[V:22] F,,2F,,2C,4 | 
[V:23] z8 | 
[V:24] z8 | 
[V:1] z8 | 
[V:2] z8 | 
[V:3] f2d2e2A2 | 
[V:4] z8 | 
[V:5] cBAGG2z2 | 
[V:6] z4z2c2- | 
[V:7] z8 | 
[V:8] z8 | 
[V:9] z8 | 
[V:10] z8 | 
[V:11] f3fe2e2 | 
[V:12] z2c3cc2 | 
[V:13] z8 | 
[V:14] A2A2c2c2 | 
[V:15] D4z2A2 | 
[V:16] A2F2z2c2 | 
[V:17] D2D2C2C2 | 
[V:18] z8 | 
[V:19] z8 | 
[V:20] z8 | 
[V:21] z8 | 
[V:22] z2F,2E,2A,2- | 
[V:23] z4z2F,,2 | 
[V:24] z8 | 
[V:1] z8 | 
[V:2] z8 | 
[V:3] A4z4 | 
[V:4] z2c2c2e2 | 
[V:5] z8 | 
[V:6] cBA2G2c2- | 
[V:7] z8 | 
[V:8] z8 | 
[V:9] z8 | 
[V:10] z8 | 
[V:11] defdg2c2 | 
[V:12] F4z4 | 
[V:13] z8 | 
[V:14] F4z4 | 
[V:15] A2A2c4 | 
[V:16] A3FG2A2 | 
[V:17] F3E/D/G2E2 | 
[V:18] z4C4 | 
[V:19] z8 | 
[V:20] z8 | 
[V:21] z8 | 
[V:22] A,G,F,D,E,2A,,2 | 
[V:23] F,,2F,,2C,4 | 
[V:24] z8 | 
[V:1] z8 | 
[V:2] z8 | 
[V:3] z8 | 
[V:4] f2d2e2A2 | 
[V:5] z8 | 
[V:6] cBAGG2z2 | 
[V:7] z8 | 
[V:8] z8 | 
[V:9] z8 | 
[V:10] z8 | 
[V:11] z8 | 
[V:12] f3fe2e2 | 
[V:13] z8 | 
[V:14] z8 | 
[V:15] A2A2c2c2 | 
[V:16] D4z2A2 | 
[V:17] A2F2z2c2 | 
[V:18] D2D2C2C2 | 
[V:19] z8 | 
[V:20] z8 | 
[V:21] z8 | 
[V:22] z8 | 
[V:23] z2F,2E,2A,2- | 
[V:24] z4z2F,,2 | 
[V:1] z8 | 
[V:2] z8 | 
[V:3] z8 | 
[V:4] A4z4 | 
[V:5] z2c2c2e2 | 
[V:6] z8 | 
[V:7] z8 | 
[V:8] z8 | 
[V:9] z8 | 
[V:10] z8 | 
[V:11] z8 | 
[V:12] defdg2c2 | 
[V:13] z8 | 
[V:14] z8 | 
[V:15] F4z4 | 
[V:16] A2A2c4 | 
[V:17] A3FG2A2 | 
[V:18] F3E/D/G2E2 | 
[V:19] z4C,4 | 
[V:20] z8 | 
[V:21] z8 | 
[V:22] z8 | 
[V:23] A,G,F,D,E,2A,,2 | 
[V:24] F,,2F,,2C,4 | 
[V:1] z4z2e2- | 
[V:2] z8 | 
[V:3] z8 | 
[V:4] z8 | 
[V:5] f2d2e2A2 | 
[V:6] z8 | 
[V:7] z8 | 
[V:8] z8 | 
[V:9] z8 | 
[V:10] z8 | 
[V:11] z8 | 
[V:12] z8 | 
[V:13] z8 | 
[V:14] z8 | 
[V:15] z8 | 
[V:16] A2A2c2c2 | 
[V:17] D4z2A2 | 
[V:18] A2F2z2c2 | 
[V:19] D,4C,4 | 
[V:20] z8 | 
[V:21] z8 | 
[V:22] z8 | 
[V:23] z8 | 
[V:24] z2F,2E,2A,2- | 
[V:1] e2A2e2e2 | 
[V:2] z8 | 
[V:3] z8 | 
[V:4] z8 | 
[V:5] A4z4 | 
[V:6] z2c2c2e2 | 
[V:7] z8 | 
[V:8] z8 | 
[V:9] z8 | 
[V:10] z8 | 
[V:11] z8 | 
[V:12] z8 | 
[V:13] z8 | 
[V:14] z8 | 
[V:15] z8 | 
[V:16] F4z4 | 
[V:17] A2A2c4 | 
[V:18] A3FG2A2 | 
[V:19] D,3C,C,4 | 
[V:20] z4C,4 | 
[V:21] z8 | 
[V:22] z8 | 
[V:23] z8 | 
[V:24] A,G,F,D,E,2A,,2 | 
[V:1] z2d2G2G2 | 
[V:2] z4z2e2- | 
[V:3] z8 | 
[V:4] z8 | 
[V:5] z8 | 
[V:6] f2d2e2A2 | 
[V:7] z4z2c2 | 
[V:8] z8 | 
[V:9] z8 | 
[V:10] z8 | 
[V:11] z8 | 
[V:12] z8 | 
[V:13] z8 | 
[V:14] z8 | 
[V:15] z8 | 
[V:16] z8 | 
[V:17] A2A2c2c2 | 
[V:18] D4z2A2 | 
[V:19] z2F,2G,4 | 
[V:20] D,4C,4 | 
[V:21] z8 | 
[V:22] z8 | 
[V:23] z8 | 
[V:24] z8 | 
[V:1] d4G2z2 | 
[V:2] e2A2e2e2 | 
[V:3] z8 | 
[V:4] z8 | 
[V:5] z8 | 
[V:6] A4z4 | 
[V:7] f4e2c2 | 
[V:8] z8 | 
[V:9] z8 | 
[V:10] z8 | 
[V:11] z8 | 
[V:12] z8 | 
[V:13] z4z2c2 | 
[V:14] z8 | 
[V:15] z8 | 
[V:16] z8 | 
[V:17] F4z4 | 
[V:18] A2A2c4 | 
[V:19] F,4G,4 | 
[V:20] D,3C,C,4 | 
[V:21] z4C,4 | 
[V:22] z8 | 
[V:23] z8 | 
[V:24] z8 | 
[V:1] A3BcBc2- | 
[V:2] z2d2G2G2 | 
[V:3] z4z2e2- | 
[V:4] z8 | 
[V:5] z8 | 
[V:6] z8 | 
[V:7] z2A3Ee2- | 
[V:8] z4z2c2 | 
[V:9] z8 | 
[V:10] z8 | 
[V:11] z8 | 
[V:12] z8 | 
[V:13] f4e4 | 
[V:14] z8 | 
[V:15] z8 | 
[V:16] z8 | 
[V:17] z8 | 
[V:18] A2A2c2c2 | 
[V:19] z2D,2E,2G,2 | 
[V:20] z2F,2G,4 | 
[V:21] D,4C,4 | 
[V:22] z8 | 
[V:23] z8 | 
[V:24] z8 | 
[V:1] cB/A/d2z2G2- | 
[V:2] d4G2z2 | 
[V:3] e2A2e2e2 | 
[V:4] z8 | 
[V:5] z8 | 
[V:6] z8 | 
[V:7] ecd2e4 | 
[V:8] f4e2c2 | 
[V:9] z8 | 
[V:10] z8 | 
[V:11] z8 | 
[V:12] z8 | 
[V:13] A2f3ce2- | 
[V:14] z4z2c2 | 
[V:15] z8 | 
[V:16] z8 | 
[V:17] z8 | 
[V:18] F4z4 | 
[V:19] D,4G,2E,2 | 
[V:20] F,4G,4 | 
[V:21] D,3C,C,4 | 
[V:22] z4C,4 | 
[V:23] z8 | 
[V:24] z8 | 
[V:1] GFA3G/F/GE | 
[V:2] A3BcBc2- | 
[V:3] z2d2G2G2 | 
[V:4] z4z2e2- | 
[V:5] z8 | 
[V:6] z8 | 
[V:7] z2d2g2e2 | 
[V:8] z2A3Ee2- | 
[V:9] z4z2c2 | 
[V:10] z8 | 
[V:11] z8 | 
[V:12] z8 | 
[V:13] e2A2e2c2 | 
[V:14] f4e4 | 
[V:15] z8 | 
[V:16] z8 | 
[V:17] z8 | 
[V:18] z8 | 
[V:19] A,2A,2E,4 | 
[V:20] z2D,2E,2G,2 | 
[V:21] z2F,2G,4 | 
[V:22] D,4C,4 | 
[V:23] z8 | 
[V:24] z8 | 
[V:1] A2F2z2c2- | 
[V:2] cB/A/d2z2G2- | 
[V:3] d4G2z2 | 
[V:4] e2A2e2e2 | 
[V:5] z8 | 
[V:6] z8 | 
[V:7] f4c4 | 
[V:8] ecd2e4 | 
[V:9] f4e2c2 | 
[V:10] z8 | 
[V:11] z8 | 
[V:12] z8 | 
[V:13] c2F2c3B | 
[V:14] A2f3ce2- | 
[V:15] z4z2c2 | 
[V:16] z8 | 
[V:17] z8 | 
[V:18] z8 | 
[V:19] z2A,2G,2G,2 | 
[V:20] D,4G,2E,2 | 
[V:21] F,4G,4 | 
[V:22] D,3C,C,4 | 
[V:23] z4C,4 | 
[V:24] z8 | 
[V:1] cBAGc3B | 
[V:2] GFA3G/F/GE | 
[V:3] A3BcBc2- | 
[V:4] z2d2G2G2 | 
[V:5] z4z2e2- | 
[V:6] z8 | 
[V:7] z8 | 
[V:8] z2d2g2e2 | 
[V:9] z2A3Ee2- | 
[V:10] z4z2c2 | 
[V:11] z8 | 
[V:12] z8 | 
[V:13] AGF2z4 | 
[V:14] e2A2e2c2 | 
[V:15] f4e4 | 
[V:16] z8 | 
[V:17] z8 | 
[V:18] z8 | 
[V:19] F,4C,4 | 
[V:20] A,2A,2E,4 | 
[V:21] z2D,2E,2G,2 | 
[V:22] z2F,2G,4 | 
[V:23] D,4C,4 | 
[V:24] z8 | 
[V:1] A4z4 | 
[V:2] A2F2z2c2- | 
[V:3] cB/A/d2z2G2- | 
[V:4] d4G2z2 | 
[V:5] e2A2e2e2 | 
[V:6] z8 | 
[V:7] z8 | 
[V:8] f4c4 | 
[V:9] ecd2e4 | 
[V:10] f4e2c2 | 
[V:11] z8 | 
[V:12] z8 | 
[V:13] A4E4 | 
[V:14] c2F2c3B | 
[V:15] A2f3ce2- | 
[V:16] z4z2c2 | 
[V:17] z8 | 
[V:18] z8 | 
[V:19] z4C,2C,2 | 
[V:20] z2A,2G,2G,2 | 
[V:21] D,4G,2E,2 | 
[V:22] F,4G,4 | 
[V:23] D,3C,C,4 | 
[V:24] z4C,4 | 
[V:1] f2f2z4 | 
[V:2] cBAGc3B | 
[V:3] GFA3G/F/GE | 
[V:4] A3BcBc2- | 
[V:5] z2d2G2G2 | 
[V:6] z4z2e2- | 
[V:7] z8 | 
[V:8] z8 | 
[V:9] z2d2g2e2 | 
[V:10] z2A3Ee2- | 
[V:11] z4z2c2 | 
[V:12] z8 | 
[V:13] z8 | 
[V:14] AGF2z4 | 
[V:15] e2A2e2c2 | 
[V:16] f4e4 | 
[V:17] z8 | 
[V:18] z8 | 
[V:19] z8 | 
[V:20] F,4C,4 | 
[V:21] A,2A,2E,4 | 
[V:22] z2D,2E,2G,2 | 
[V:23] z2F,2G,4 | 
[V:24] D,4C,4 | 
[V:1] z4e2e2 | 
[V:2] A4z4 | 
[V:3] A2F2z2c2- | 
[V:4] cB/A/d2z2G2- | 
[V:5] d4G2z2 | 
[V:6] e2A2e2e2 | 
[V:7] A3BcAe2- | 
[V:8] z8 | 
[V:9] f4c4 | 
[V:10] ecd2e4 | 
[V:11] f4e2c2 | 
[V:12] z8 | 
[V:13] z8 | 
[V:14] A4E4 | 
[V:15] c2F2c3B | 
[V:16] A2f3ce2- | 
[V:17] z4z2c2 | 
[V:18] z8 | 
[V:19] F,,2F,,2z4 | 
[V:20] z4C,2C,2 | 
[V:21] z2A,2G,2G,2 | 
[V:22] D,4G,2E,2 | 
[V:23] F,4G,4 | 
[V:24] D,3C,C,4 | 
[V:1] z4c2c2 | 
[V:2] f2f2z4 | 
[V:3] cBAGc3B | 
[V:4] GFA3G/F/GE | 
[V:5] A3BcBc2- | 
[V:6] z2d2G2G2 | 
[V:7] ed/c/f3e/d/e2 | 
[V:8] z8 | 
[V:9] z8 | 
[V:10] z2d2g2e2 | 
[V:11] z2A3Ee2- | 
[V:12] z4z2c2 | 
[V:13] A4G4 | 
[V:14] z8 | 
[V:15] AGF2z4 | 
[V:16] e2A2e2c2 | 
[V:17] f4e4 | 
[V:18] z8 | 
[V:19] z8 | 
[V:20] z8 | 
[V:21] F,4C,4 | 
[V:22] A,2A,2E,4 | 
[V:23] z2D,2E,2G,2 | 
[V:24] z2F,2G,4 | 
[V:1] z4c4 | 
[V:2] z4e2e2 | 
[V:3] A4z4 | 
[V:4] A2F2z2c2- | 
[V:5] cB/A/d2z2G2- | 
[V:6] d4G2z2 | 
[V:7] z4e4 | 
[V:8] A3BcAe2- | 
[V:9] z8 | 
[V:10] f4c4 | 
[V:11] ecd2e4 | 
[V:12] f4e2c2 | 
[V:13] z8 | 
[V:14] z8 | 
[V:15] A4E4 | 
[V:16] c2F2c3B | 
[V:17] A2f3ce2- | 
[V:18] z4z2c2 | 
[V:19] z4z2C,2- | 
[V:20] z8 | 
[V:21] z4C,2C,2 | 
[V:22] z2A,2G,2G,2 | 
[V:23] D,4G,2E,2 | 
[V:24] F,4G,4 | 
[V:1] c3cc2G2 | 
[V:2] z4c2c2 | 
[V:3] f2f2z4 | 
[V:4] cBAGc3B | 
[V:5] GFA3G/F/GE | 
[V:6] A3BcBc2- | 
[V:7] A4z4 | 
[V:8] ed/c/f3e/d/e2 | 
[V:9] z8 | 
[V:10] z8 | 
[V:11] z2d2g2e2 | 
[V:12] z2A3Ee2- | 
[V:13] z8 | 
[V:14] A4G4 | 
[V:15] z8 | 
[V:16] AGF2z4 | 
[V:17] e2A2e2c2 | 
[V:18] f4e4 | 
[V:19] C,2F,,2C,2C,2 | 
[V:20] F,,2F,,2z4 | 
[V:21] z8 | 
[V:22] F,4C,4 | 
[V:23] A,2A,2E,4 | 
[V:24] z2D,2E,2G,2 | 
[V:1] A2A2e2e2 | 
[V:2] z4c4 | 
[V:3] z4e2e2 | 
[V:4] A4z4 | 
[V:5] A2F2z2c2- | 
[V:6] cB/A/d2z2G2- | 
[V:7] z8 | 
[V:8] z4e4 | 
[V:9] A3BcAe2- | 
[V:10] z8 | 
[V:11] f4c4 | 
[V:12] ecd2e4 | 
[V:13] z8 | 
[V:14] z8 | 
[V:15] z8 | 
[V:16] A4E4 | 
[V:17] c2F2c3B | 
[V:18] A2f3ce2- | 
[V:19] z8 | 
[V:20] z4z2C,2- | 
[V:21] z8 | 
[V:22] z4C,2C,2 | 
[V:23] z2A,2G,2G,2 | 
[V:24] D,4G,2E,2 | 
[V:1] c4z4 | 
[V:2] c3cc2G2 | 
[V:3] z4c2c2 | 
[V:4] f2f2z4 | 
[V:5] cBAGc3B | 
[V:6] GFA3G/F/GE | 
[V:7] z8 | 
[V:8] A4z4 | 
[V:9] ed/c/f3e/d/e2 | 
[V:10] z8 | 
[V:11] z8 | 
[V:12] z2d2g2e2 | 
[V:13] z4c4 | 
[V:14] z8 | 
[V:15] A4G4 | 
[V:16] z8 | 
[V:17] AGF2z4 | 
[V:18] e2A2e2c2 | 
[V:19] z4C,4 | 
[V:20] C,2F,,2C,2C,2 | 
[V:21] F,,2F,,2z4 | 
[V:22] z8 | 
[V:23] F,4C,4 | 
[V:24] A,2A,2E,4 | 
[V:1] z8 | 
[V:2] A2A2e2e2 | 
[V:3] z4c4 | 
[V:4] z4e2e2 | 
[V:5] A4z4 | 
[V:6] A2F2z2c2- | 
[V:7] f4e2c2 | 
[V:8] z8 | 
[V:9] z4e4 | 
[V:10] A3BcAe2- | 
[V:11] z8 | 
[V:12] f4c4 | 
[V:13] c6A2 | 
[V:14] z8 | 
[V:15] z8 | 
[V:16] z8 | 
[V:17] A4E4 | 
[V:18] c2F2c3B | 
[V:19] F,,4z4 | 
[V:20] z8 | 
[V:21] z4z2C,2- | 
[V:22] z8 | 
[V:23] z4C,2C,2 | 
[V:24] z2A,2G,2G,2 | 
[V:1] z4z2c2 | 
[V:2] c4z4 | 
[V:3] c3cc2G2 | 
[V:4] z4c2c2 | 
[V:5] f2f2z4 | 
[V:6] cBAGc3B | 
[V:7] c3de2e2 | 
[V:8] z8 | 
[V:9] A4z4 | 
[V:10] ed/c/f3e/d/e2 | 
[V:11] z8 | 
[V:12] z8 | 
[V:13] A3FG2C2 | 
[V:14] z4c4 | 
[V:15] z8 | 
[V:16] A4G4 | 
[V:17] z8 | 
[V:18] AGF2z4 | 
[V:19] F,4E,3D, | 
[V:20] z4C,4 | 
[V:21] C,2F,,2C,2C,2 | 
[V:22] F,,2F,,2z4 | 
[V:23] z8 | 
[V:24] F,4C,4 | 
[V:1] c3cc2c2 | 
[V:2] z8 | 
[V:3] A2A2e2e2 | 
[V:4] z4c4 | 
[V:5] z4e2e2 | 
[V:6] A4z4 | 
[V:7] A2c3de2 | 
[V:8] f4e2c2 | 
[V:9] z8 | 
[V:10] z4e4 | 
[V:11] A3BcAe2- | 
[V:12] z8 | 
[V:13] C4z4 | 
[V:14] c6A2 | 
[V:15] z8 | 
[V:16] z8 | 
[V:17] z8 | 
[V:18] A4E4 | 
[V:19] C,3C,C,2C,2 | 
[V:20] F,,4z4 | 
[V:21] z8 | 
[V:22] z4z2C,2- | 
[V:23] z8 | 
[V:24] z4C,2C,2 | 
[V:1] A2c4e2 | 
[V:2] z4z2c2 | 
[V:3] c4z4 | 
[V:4] c3cc2G2 | 
[V:5] z4c2c2 | 
[V:6] f2f2z4 | 
[V:7] z2c2g2g2 | 
[V:8] c3de2e2 | 
[V:9] z8 | 
[V:10] A4z4 | 
[V:11] ed/c/f3e/d/e2 | 
[V:12] z8 | 
[V:13] F2F2z4 | 
[V:14] A3FG2C2 | 
[V:15] z4c4 | 
[V:16] z8 | 
[V:17] A4G4 | 
[V:18] z8 | 
[V:19] F,,4z4 | 
[V:20] F,4E,3D, | 
[V:21] z4C,4 | 
[V:22] C,2F,,2C,2C,2 | 
[V:23] F,,2F,,2z4 | 
[V:24] z8 | 
[V:1] f2c2z2c2- | 
[V:2] c3cc2c2 | 
[V:3] z8 | 
[V:4] A2A2e2e2 | 
[V:5] z4c4 | 
[V:6] z4e2e2 | 
[V:7] c2f4e2 | 
[V:8] A2c3de2 | 
[V:9] f4e2c2 | 
[V:10] z8 | 
[V:11] z4e4 | 
[V:12] A3BcAe2- | 
[V:13] c4c2c2 | 
[V:14] C4z4 | 
[V:15] c6A2 | 
[V:16] z8 | 
[V:17] z8 | 
[V:18] z8 | 
[V:19] F,,3G,,A,,B,,C,2- | 
[V:20] C,3C,C,2C,2 | 
[V:21] F,,4z4 | 
[V:22] z8 | 
[V:23] z4z2C,2- | 
[V:24] z8 | 
[V:1] cBA3GG2- | 
[V:2] A2c4e2 | 
[V:3] z4z2c2 | 
[V:4] c4z4 | 
[V:5] c3cc2G2 | 
[V:6] z4c2c2 | 
[V:7] f4z4 | 
[V:8] z2c2g2g2 | 
[V:9] c3de2e2 | 
[V:10] z8 | 
[V:11] A4z4 | 
[V:12] ed/c/f3e/d/e2 | 
[V:13] c2c2G2c2- | 
[V:14] F2F2z4 | 
[V:15] A3FG2C2 | 
[V:16] z4c4 | 
[V:17] z8 | 
[V:18] A4G4 | 
[V:19] C,F,,F,2z2C,2 | 
[V:20] F,,4z4 | 
[V:21] F,4E,3D, | 
[V:22] z4C,4 | 
[V:23] C,2F,,2C,2C,2 | 
[V:24] F,,2F,,2z4 | 
[V:1] GFA4E2 | 
[V:2] f2c2z2c2- | 
[V:3] c3cc2c2 | 
[V:4] z8 | 
[V:5] A2A2e2e2 | 
[V:6] z4c4 | 
[V:7] c4c4 | 
[V:8] c2f4e2 | 
[V:9] A2c3de2 | 
[V:10] f4e2c2 | 
[V:11] z8 | 
[V:12] z4e4 | 
[V:13] cBA3Gc2- | 
[V:14] c4c2c2 | 
[V:15] C4z4 | 
[V:16] c6A2 | 
[V:17] z8 | 
[V:18] z8 | 
[V:19] F,2F,2C,2C,2 | 
[V:20] F,,3G,,A,,B,,C,2- | 
[V:21] C,3C,C,2C,2 | 
[V:22] F,,4z4 | 
[V:23] z8 | 
[V:24] z4z2C,2- | 
[V:1] A4z4 | 
[V:2] cBA3GG2- | 
[V:3] A2c4e2 | 
[V:4] z4z2c2 | 
[V:5] c4z4 | 
[V:6] c3cc2G2 | 
[V:7] c2c4BA | 
[V:8] f4z4 | 
[V:9] z2c2g2g2 | 
[V:10] c3de2e2 | 
[V:11] z8 | 
[V:12] A4z4 | 
[V:13] c2C2G4 | 
[V:14] c2c2G2c2- | 
[V:15] F2F2z4 | 
[V:16] A3FG2C2 | 
[V:17] z4c4 | 
[V:18] z8 | 
[V:19] F,2C,2C,2C,2 | 
[V:20] C,F,,F,2z2C,2 | 
[V:21] F,,4z4 | 
[V:22] F,4E,3D, | 
[V:23] z4C,4 | 
[V:24] C,2F,,2C,2C,2 | 
[V:1] z2A4G2- | 
[V:2] GFA4E2 | 
[V:3] f2c2z2c2- | 
[V:4] c3cc2c2 | 
[V:5] z8 | 
[V:6] A2A2e2e2 | 
[V:7] c3Ae4 | 
[V:8] c4c4 | 
[V:9] c2f4e2 | 
[V:10] A2c3de2 | 
[V:11] f4e2c2 | 
[V:12] z8 | 
[V:13] F4z4 | 
[V:14] cBA3Gc2- | 
[V:15] c4c2c2 | 
[V:16] C4z4 | 
[V:17] c6A2 | 
[V:18] z8 | 
[V:19] A,,3F,,C,4 | 
[V:20] F,2F,2C,2C,2 | 
[V:21] F,,3G,,A,,B,,C,2- | 
[V:22] C,3C,C,2C,2 | 
[V:23] F,,4z4 | 
[V:24] z8 | 
[V:1] G2F4E2- | 
[V:2] A4z4 | 
[V:3] cBA3GG2- | 
[V:4] A2c4e2 | 
[V:5] z4z2c2 | 
[V:6] c4z4 | 
[V:7] z8 | 
[V:8] c2c4BA | 
[V:9] f4z4 | 
[V:10] z2c2g2g2 | 
[V:11] c3de2e2 | 
[V:12] z8 | 
[V:13] F4G2E2 | 
[V:14] c2C2G4 | 
[V:15] c2c2G2c2- | 
[V:16] F2F2z4 | 
[V:17] A3FG2C2 | 
[V:18] z4c4 | 
[V:19] z8 | 
[V:20] F,2C,2C,2C,2 | 
[V:21] C,F,,F,2z2C,2 | 
[V:22] F,,4z4 | 
[V:23] F,4E,3D, | 
[V:24] z4C,4 | 
[V:1] EDF2z2C2 | 
[V:2] z2A4G2- | 
[V:3] GFA4E2 | 
[V:4] f2c2z2c2- | 
[V:5] c3cc2c2 | 
[V:6] z8 | 
[V:7] z2c2g4 | 
[V:8] c3Ae4 | 
[V:9] c4c4 | 
[V:10] c2f4e2 | 
[V:11] A2c3de2 | 
[V:12] f4e2c2 | 
[V:13] A4E4 | 
[V:14] F4z4 | 
[V:15] cBA3Gc2- | 
[V:16] c4c2c2 | 
[V:17] C4z4 | 
[V:18] c6A2 | 
[V:19] z4z2C,2- | 
[V:20] A,,3F,,C,4 | 
[V:21] F,2F,2C,2C,2 | 
[V:22] F,,3G,,A,,B,,C,2- | 
[V:23] C,3C,C,2C,2 | 
[V:24] F,,4z4 | 
[V:1] c3cc2c2- | 
[V:2] G2F4E2- | 
[V:3] A4z4 | 
[V:4] cBA3GG2- | 
[V:5] A2c4e2 | 
[V:6] z4z2c2 | 
[V:7] f4c4 | 
[V:8] z8 | 
[V:9] c2c4BA | 
[V:10] f4z4 | 
[V:11] z2c2g2g2 | 
[V:12] c3de2e2 | 
[V:13] z8 | 
[V:14] F4G2E2 | 
[V:15] c2C2G4 | 
[V:16] c2c2G2c2- | 
[V:17] F2F2z4 | 
[V:18] A3FG2C2 | 
[V:19] C,2C,2C,3F,, | 
[V:20] z8 | 
[V:21] F,2C,2C,2C,2 | 
[V:22] C,F,,F,2z2C,2 | 
[V:23] F,,4z4 | 
[V:24] F,4E,3D, | 
[V:1] c2c2z4 | 
[V:2] EDF2z2C2 | 
[V:3] z2A4G2- | 
[V:4] GFA4E2 | 
[V:5] f2c2z2c2- | 
[V:6] c3cc2c2 | 
[V:7] z4c3c | 
[V:8] z2c2g4 | 
[V:9] c3Ae4 | 
[V:10] c4c4 | 
[V:11] c2f4e2 | 
[V:12] A2c3de2 | 
[V:13] F3Cc2c2 | 
[V:14] A4E4 | 
[V:15] F4z4 | 
[V:16] cBA3Gc2- | 
[V:17] c4c2c2 | 
[V:18] C4z4 | 
[V:19] F,,4z4 | 
[V:20] z4z2C,2- | 
[V:21] A,,3F,,C,4 | 
[V:22] F,2F,2C,2C,2 | 
[V:23] F,,3G,,A,,B,,C,2- | 
[V:24] C,3C,C,2C,2 | 
[V:1] z8 | 
[V:2] c3cc2c2- | 
[V:3] G2F4E2- | 
[V:4] A4z4 | 
[V:5] cBA3GG2- | 
[V:6] A2c4e2 | 
[V:7] c2c2c4 | 
[V:8] f4c4 | 
[V:9] z8 | 
[V:10] c2c4BA | 
[V:11] f4z4 | 
[V:12] z2c2g2g2 | 
[V:13] c4c4 | 
[V:14] z8 | 
[V:15] F4G2E2 | 
[V:16] c2C2G4 | 
[V:17] c2c2G2c2- | 
[V:18] F2F2z4 | 
[V:19] F,2F,2G,2C,2 | 
[V:20] C,2C,2C,3F,, | 
[V:21] z8 | 
[V:22] F,2C,2C,2C,2 | 
[V:23] C,F,,F,2z2C,2 | 
[V:24] F,,4z4 | 
[V:1] z2c2cde2 | 
[V:2] c2c2z4 | 
[V:3] EDF2z2C2 | 
[V:4] z2A4G2- | 
[V:5] GFA4E2 | 
[V:6] f2c2z2c2- | 
[V:7] c4z4 | 
[V:8] z4c3c | 
[V:9] z2c2g4 | 
[V:10] c3Ae4 | 
[V:11] c4c4 | 
[V:12] c2f4e2 | 
[V:13] z8 | 
[V:14] F3Cc2c2 | 
[V:15] A4E4 | 
[V:16] F4z4 | 
[V:17] cBA3Gc2- | 
[V:18] c4c2c2 | 
[V:19] C,8 | 
[V:20] F,,4z4 | 
[V:21] z4z2C,2- | 
[V:22] A,,3F,,C,4 | 
[V:23] F,2F,2C,2C,2 | 
[V:24] F,,3G,,A,,B,,C,2- | 
[V:1] A4z2c2- | 
[V:2] z8 | 
[V:3] c3cc2c2- | 
[V:4] G2F4E2- | 
[V:5] A4z4 | 
[V:6] cBA3GG2- | 
[V:7] z8 | 
[V:8] c2c2c4 | 
[V:9] f4c4 | 
[V:10] z8 | 
[V:11] c2c4BA | 
[V:12] f4z4 | 
[V:13] C4E4 | 
[V:14] c4c4 | 
[V:15] z8 | 
[V:16] F4G2E2 | 
[V:17] c2C2G4 | 
[V:18] c2c2G2c2- | 
[V:19] F,,4z4 | 
[V:20] F,2F,2G,2C,2 | 
[V:21] C,2C,2C,3F,, | 
[V:22] z8 | 
[V:23] F,2C,2C,2C,2 | 
[V:24] C,F,,F,2z2C,2 | 
[V:1] c2c2c4 | 
[V:2] z2c2cde2 | 
[V:3] c2c2z4 | 
[V:4] EDF2z2C2 | 
[V:5] z2A4G2- | 
[V:6] GFA4E2 | 
[V:7] z2f2f2e2 | 
[V:8] c4z4 | 
[V:9] z4c3c | 
[V:10] z2c2g4 | 
[V:11] c3Ae4 | 
[V:12] c4c4 | 
[V:13] C2C2C2C2 | 
[V:14] z8 | 
[V:15] F3Cc2c2 | 
[V:16] A4E4 | 
[V:17] F4z4 | 
[V:18] cBA3Gc2- | 
[V:19] F,4G,4 | 
[V:20] C,8 | 
[V:21] F,,4z4 | 
[V:22] z4z2C,2- | 
[V:23] A,,3F,,C,4 | 
[V:24] F,2F,2C,2C,2 | 
[V:1] c6G2 | 
[V:2] A4z2c2- | 
[V:3] z8 | 
[V:4] c3cc2c2- | 
[V:5] G2F4E2- | 
[V:6] A4z4 | 
[V:7] f3defg2 | 
[V:8] z8 | 
[V:9] c2c2c4 | 
[V:10] f4c4 | 
[V:11] z8 | 
[V:12] c2c4BA | 
[V:13] C2c3BAG | 
[V:14] C4E4 | 
[V:15] c4c4 | 
[V:16] z8 | 
[V:17] F4G2E2 | 
[V:18] c2C2G4 | 
[V:19] A,2F,2z4 | 
[V:20] F,,4z4 | 
[V:21] F,2F,2G,2C,2 | 
[V:22] C,2C,2C,3F,, | 
[V:23] z8 | 
[V:24] F,2C,2C,2C,2 | 
[V:1] z8 | 
[V:2] c2c2c4 | 
[V:3] z2c2cde2 | 
[V:4] c2c2z4 | 
[V:5] EDF2z2C2 | 
[V:6] z2A4G2- | 
[V:7] z4c2G2 | 
[V:8] z2f2f2e2 | 
[V:9] c4z4 | 
[V:10] z4c3c | 
[V:11] z2c2g4 | 
[V:12] c3Ae4 | 
[V:13] A4z4 | 
[V:14] C2C2C2C2 | 
[V:15] z8 | 
[V:16] F3Cc2c2 | 
[V:17] A4E4 | 
[V:18] F4z4 | 
[V:19] z8 | 
[V:20] F,4G,4 | 
[V:21] C,8 | 
[V:22] F,,4z4 | 
[V:23] z4z2C,2- | 
[V:24] A,,3F,,C,4 | 
[V:1] z8 | 
[V:2] c6G2 | 
[V:3] A4z2c2- | 
[V:4] z8 | 
[V:5] c3cc2c2- | 
[V:6] G2F4E2- | 
[V:7] c3B/A/cde2- | 
[V:8] f3defg2 | 
[V:9] z8 | 
[V:10] c2c2c4 | 
[V:11] f4c4 | 
[V:12] z8 | 
[V:13] z8 | 
[V:14] C2c3BAG | 
[V:15] C4E4 | 
[V:16] c4c4 | 
[V:17] z8 | 
[V:18] F4G2E2 | 
[V:19] z4z2C,2 | 
[V:20] A,2F,2z4 | 
[V:21] F,,4z4 | 
[V:22] F,2F,2G,2C,2 | 
[V:23] C,2C,2C,3F,, | 
[V:24] z8 | 
[V:1] z8 | 
[V:2] z8 | 
[V:3] c2c2c4 | 
[V:4] z2c2cde2 | 
[V:5] c2c2z4 | 
[V:6] EDF2z2C2 | 
[V:7] eBcdG2AB | 
[V:8] z4c2G2 | 
[V:9] z2f2f2e2 | 
[V:10] c4z4 | 
[V:11] z4c3c | 
[V:12] z2c2g4 | 
[V:13] z8 | 
[V:14] A4z4 | 
[V:15] C2C2C2C2 | 
[V:16] z8 | 
[V:17] F3Cc2c2 | 
[V:18] A4E4 | 
[V:19] F,2F,2E,2C,2 | 
[V:20] z8 | 
[V:21] F,4G,4 | 
[V:22] C,8 | 
[V:23] F,,4z4 | 
[V:24] z4z2C,2- | 
[V:1] z8 | 
[V:2] z8 | 
[V:3] c6G2 | 
[V:4] A4z2c2- | 
[V:5] z8 | 
[V:6] c3cc2c2- | 
[V:7] cdc3Ae2 | 
[V:8] c3B/A/cde2- | 
[V:9] f3defg2 | 
[V:10] z8 | 
[V:11] c2c2c4 | 
[V:12] f4c4 | 
[V:13] z8 | 
[V:14] z8 | 
[V:15] C2c3BAG | 
[V:16] C4E4 | 
[V:17] c4c4 | 
[V:18] z8 | 
[V:19] z8 | 
[V:20] z4z2C,2 | 
[V:21] A,2F,2z4 | 
[V:22] F,,4z4 | 
[V:23] F,2F,2G,2C,2 | 
[V:24] C,2C,2C,3F,, | 
[V:1] z8 | 
[V:2] z8 | 
[V:3] z8 | 
[V:4] c2c2c4 | 
[V:5] z2c2cde2 | 
[V:6] c2c2z4 | 
[V:7] z2A2c2c2 | 
[V:8] eBcdG2AB | 
[V:9] z4c2G2 | 
[V:10] z2f2f2e2 | 
[V:11] c4z4 | 
[V:12] z4c3c | 
[V:13] z2A2G2E2 | 
[V:14] z8 | 
[V:15] A4z4 | 
[V:16] C2C2C2C2 | 
[V:17] z8 | 
[V:18] F3Cc2c2 | 
[V:19] z2F,2C,2G,2 | 
[V:20] F,2F,2E,2C,2 | 
[V:21] z8 | 
[V:22] F,4G,4 | 
[V:23] C,8 | 
[V:24] F,,4z4 | 
[V:1] z2A2G2E2 | 
[V:2] z8 | 
[V:3] z8 | 
[V:4] c6G2 | 
[V:5] A4z2c2- | 
[V:6] z8 | 
[V:7] c3Ae4 | 
[V:8] cdc3Ae2 | 
[V:9] c3B/A/cde2- | 
[V:10] f3defg2 | 
[V:11] z8 | 
[V:12] c2c2c4 | 
[V:13] A3Bc4- | 
[V:14] z8 | 
[V:15] z8 | 
[V:16] C2c3BAG | 
[V:17] C4E4 | 
[V:18] c4c4 | 
[V:19] F,E,D,C,C,3B,, | 
[V:20] z8 | 
[V:21] z4z2C,2 | 
[V:22] A,2F,2z4 | 
[V:23] F,,4z4 | 
[V:24] F,2F,2G,2C,2 | 
[V:1] A4E4 | 
[V:2] z8 | 
[V:3] z8 | 
[V:4] z8 | 
[V:5] c2c2c4 | 
[V:6] z2c2cde2 | 
[V:7] A4z4 | 
[V:8] z2A2c2c2 | 
[V:9] eBcdG2AB | 
[V:10] z4c2G2 | 
[V:11] z2f2f2e2 | 
[V:12] c4z4 | 
[V:13] c4z4 | 
[V:14] z2A2G2E2 | 
[V:15] z8 | 
[V:16] A4z4 | 
[V:17] C2C2C2C2 | 
[V:18] z8 | 
[V:19] A,,G,,F,,2z4 | 
[V:20] z2F,2C,2G,2 | 
[V:21] F,2F,2E,2C,2 | 
[V:22] z8 | 
[V:23] F,4G,4 | 
[V:24] C,8 | 
[V:1] z2F2G3E | 
[V:2] z2A2G2E2 | 
[V:3] z8 | 
[V:4] z8 | 
[V:5] c6G2 | 
[V:6] A4z2c2- | 
[V:7] z8 | 
[V:8] c3Ae4 | 
[V:9] cdc3Ae2 | 
[V:10] c3B/A/cde2- | 
[V:11] f3defg2 | 
[V:12] z8 | 
[V:13] z8 | 
[V:14] A3Bc4- | 
[V:15] z8 | 
[V:16] z8 | 
[V:17] C2c3BAG | 
[V:18] C4E4 | 
[V:19] z8 | 
[V:20] F,E,D,C,C,3B,, | 
[V:21] z8 | 
[V:22] z4z2C,2 | 
[V:23] A,2F,2z4 | 
[V:24] F,,4z4 | 
[V:1] F2C2G2C2 | 
[V:2] A4E4 | 
[V:3] z8 | 
[V:4] z8 | 
[V:5] z8 | 
[V:6] c2c2c4 | 
[V:7] z8 | 
[V:8] A4z4 | 
[V:9] z2A2c2c2 | 
[V:10] eBcdG2AB | 
[V:11] z4c2G2 | 
[V:12] z2f2f2e2 | 
[V:13] z8 | 
[V:14] c4z4 | 
[V:15] z2A2G2E2 | 
[V:16] z8 | 
[V:17] A4z4 | 
[V:18] C2C2C2C2 | 
[V:19] z2C,2C,2C,2 | 
[V:20] A,,G,,F,,2z4 | 
[V:21] z2F,2C,2G,2 | 
[V:22] F,2F,2E,2C,2 | 
[V:23] z8 | 
[V:24] F,4G,4 | 
[V:1] z8 | 
[V:2] z2F2G3E | 
[V:3] z2A2G2E2 | 
[V:4] z8 | 
[V:5] z8 | 
[V:6] c6G2 | 
[V:7] z4z2c2 | 
[V:8] z8 | 
[V:9] c3Ae4 | 
[V:10] cdc3Ae2 | 
[V:11] c3B/A/cde2- | 
[V:12] f3defg2 | 
[V:13] z4c4 | 
[V:14] z8 | 
[V:15] A3Bc4- | 
[V:16] z8 | 
[V:17] z8 | 
[V:18] C2c3BAG | 
[V:19] F,,2F,,2C,4 | 
[V:20] z8 | 
[V:21] F,E,D,C,C,3B,, | 
[V:22] z8 | 
[V:23] z4z2C,2 | 
[V:24] A,2F,2z4 | 
[V:1] z4c4 | 
[V:2] F2C2G2C2 | 
[V:3] A4E4 | 
[V:4] z8 | 
[V:5] z8 | 
[V:6] z8 | 
[V:7] c3Ae4 | 
[V:8] z8 | 
[V:9] A4z4 | 
[V:10] z2A2c2c2 | 
[V:11] eBcdG2AB | 
[V:12] z4c2G2 | 
[V:13] c2c2c2c2 | 
[V:14] z8 | 
[V:15] c4z4 | 
[V:16] z2A2G2E2 | 
[V:17] z8 | 
[V:18] A4z4 | 
[V:19] F,,4z2C,2 | 
[V:20] z2C,2C,2C,2 | 
[V:21] A,,G,,F,,2z4 | 
[V:22] z2F,2C,2G,2 | 
[V:23] F,2F,2E,2C,2 | 
[V:24] z8 | 
[V:1] c2A4G2- | 
[V:2] z8 | 
[V:3] z2F2G3E | 
[V:4] z2A2G2E2 | 
[V:5] z8 | 
[V:6] z8 | 
[V:7] c6g2- | 
[V:8] z4z2c2 | 
[V:9] z8 | 
[V:10] c3Ae4 | 
[V:11] cdc3Ae2 | 
[V:12] c3B/A/cde2- | 
[V:13] c4G4 | 
[V:14] z4c4 | 
[V:15] z8 | 
[V:16] A3Bc4- | 
[V:17] z8 | 
[V:18] z8 | 
[V:19] F,2F,2E,2E,2 | 
[V:20] F,,2F,,2C,4 | 
[V:21] z8 | 
[V:22] F,E,D,C,C,3B,, | 
[V:23] z8 | 
[V:24] z4z2C,2 | 
[V:1] GFA4G2- | 
[V:2] z4c4 | 
[V:3] F2C2G2C2 | 
[V:4] A4E4 | 
[V:5] z8 | 
[V:6] z8 | 
[V:7] gefde4 | 
[V:8] c3Ae4 | 
[V:9] z8 | 
[V:10] A4z4 | 
[V:11] z2A2c2c2 | 
[V:12] eBcdG2AB | 
[V:13] z2c4c2 | 
[V:14] c2c2c2c2 | 
[V:15] z8 | 
[V:16] c4z4 | 
[V:17] z2A2G2E2 | 
[V:18] z8 | 
[V:19] C,4C,4 | 
[V:20] F,,4z2C,2 | 
[V:21] z2C,2C,2C,2 | 
[V:22] A,,G,,F,,2z4 | 
[V:23] z2F,2C,2G,2 | 
[V:24] F,2F,2E,2C,2 | 
[V:1] G2F3EED | 
[V:2] c2A4G2- | 
[V:3] z8 | 
[V:4] z2F2G3E | 
[V:5] z2A2G2E2 | 
[V:6] z8 | 
[V:7] z2c4BA | 
[V:8] c6g2- | 
[V:9] z4z2c2 | 
[V:10] z8 | 
[V:11] c3Ae4 | 
[V:12] cdc3Ae2 | 
[V:13] A3FG4 | 
[V:14] c4G4 | 
[V:15] z4c4 | 
[V:16] z8 | 
[V:17] A3Bc4- | 
[V:18] z8 | 
[V:19] z8 | 
[V:20] F,2F,2E,2E,2 | 
[V:21] F,,2F,,2C,4 | 
[V:22] z8 | 
[V:23] F,E,D,C,C,3B,, | 
[V:24] z8 | 
[V:1] F4z4 | 
[V:2] GFA4G2- | 
[V:3] z4c4 | 
[V:4] F2C2G2C2 | 
[V:5] A4E4 | 
[V:6] z8 | 
[V:7] A4z2e2 | 
[V:8] gefde4 | 
[V:9] c3Ae4 | 
[V:10] z8 | 
[V:11] A4z4 | 
[V:12] z2A2c2c2 | 
[V:13] F4z4 | 
[V:14] z2c4c2 | 
[V:15] c2c2c2c2 | 
[V:16] z8 | 
[V:17] c4z4 | 
[V:18] z2A2G2E2 | 
[V:19] F,,4z4 | 
[V:20] C,4C,4 | 
[V:21] F,,4z2C,2 | 
[V:22] z2C,2C,2C,2 | 
[V:23] A,,G,,F,,2z4 | 
[V:24] z2F,2C,2G,2 | 
[V:1] z8 | 
[V:2] G2F3EED | 
[V:3] c2A4G2- | 
[V:4] z8 | 
[V:5] z2F2G3E | 
[V:6] z2A2G2E2 | 
[V:7] f3ecde2 | 
[V:8] z2c4BA | 
[V:9] c6g2- | 
[V:10] z4z2c2 | 
[V:11] z8 | 
[V:12] c3Ae4 | 
[V:13] C3DEFG2 | 
[V:14] A3FG4 | 
[V:15] c4G4 | 
[V:16] z4c4 | 
[V:17] z8 | 
[V:18] A3Bc4- | 
[V:19] F,,4z4 | 
[V:20] z8 | 
[V:21] F,2F,2E,2E,2 | 
[V:22] F,,2F,,2C,4 | 
[V:23] z8 | 
[V:24] F,E,D,C,C,3B,, | 
[V:1] A4G2E2 | 
[V:2] F4z4 | 
[V:3] GFA4G2- | 
[V:4] z4c4 | 
[V:5] F2C2G2C2 | 
[V:6] A4E4 | 
[V:7] z2ABcde2- | 
[V:8] A4z2e2 | 
[V:9] gefde4 | 
[V:10] c3Ae4 | 
[V:11] z8 | 
[V:12] A4z4 | 
[V:13] z2C2C2C2 | 
[V:14] F4z4 | 
[V:15] z2c4c2 | 
[V:16] c2c2c2c2 | 
[V:17] z8 | 
[V:18] c4z4 | 
[V:19] C,4G,2G,2 | 
[V:20] F,,4z4 | 
[V:21] C,4C,4 | 
[V:22] F,,4z2C,2 | 
[V:23] z2C,2C,2C,2 | 
[V:24] A,,G,,F,,2z4 | 
[V:1] A4E4 | 
[V:2] z8 | 
[V:3] G2F3EED | 
[V:4] c2A4G2- | 
[V:5] z8 | 
[V:6] z2F2G3E | 
[V:7] eAf3eg2 | 
[V:8] f3ecde2 | 
[V:9] z2c4BA | 
[V:10] c6g2- | 
[V:11] z4z2c2 | 
[V:12] z8 | 
[V:13] C8- | 
[V:14] C3DEFG2 | 
[V:15] A3FG4 | 
[V:16] c4G4 | 
[V:17] z4c4 | 
[V:18] z8 | 
[V:19] F,2A,3G,C2- | 
[V:20] F,,4z4 | 
[V:21] z8 | 
[V:22] F,2F,2E,2E,2 | 
[V:23] F,,2F,,2C,4 | 
[V:24] z8 | 
[V:1] A2c3B/A/e2 | 
[V:2] A4G2E2 | 
[V:3] F4z4 | 
[V:4] GFA4G2- | 
[V:5] z4c4 | 
[V:6] F2C2G2C2 | 
[V:7] a4e2c2- | 
[V:8] z2ABcde2- | 
[V:9] A4z2e2 | 
[V:10] gefde4 | 
[V:11] c3Ae4 | 
[V:12] z8 | 
[V:13] C4z2c2- | 
[V:14] z2C2C2C2 | 
[V:15] F4z4 | 
[V:16] z2c4c2 | 
[V:17] c2c2c2c2 | 
[V:18] z8 | 
[V:19] C2B,A,G,4 | 
[V:20] C,4G,2G,2 | 
[V:21] F,,4z4 | 
[V:22] C,4C,4 | 
[V:23] F,,4z2C,2 | 
[V:24] z2C,2C,2C,2 | 
[V:1] z8 | 
[V:2] A4E4 | 
[V:3] z8 | 
[V:4] G2F3EED | 
[V:5] c2A4G2- | 
[V:6] z8 | 
[V:7] cBcAe2c2 | 
[V:8] eAf3eg2 | 
[V:9] f3ecde2 | 
[V:10] z2c4BA | 
[V:11] c6g2- | 
[V:12] z4z2c2 | 
[V:13] cAA2c4 | 
[V:14] C8- | 
[V:15] C3DEFG2 | 
[V:16] A3FG4 | 
[V:17] c4G4 | 
[V:18] z4c4 | 
[V:19] z2C,2C,2C,2 | 
[V:20] F,2A,3G,C2- | 
[V:21] F,,4z4 | 
[V:22] z8 | 
[V:23] F,2F,2E,2E,2 | 
[V:24] F,,2F,,2C,4 | 
[V:1] c8 | 
[V:2] A2c3B/A/e2 | 
[V:3] A4G2E2 | 
[V:4] F4z4 | 
[V:5] GFA4G2- | 
[V:6] z4c4 | 
[V:7] c4z4 | 
[V:8] a4e2c2- | 
[V:9] z2ABcde2- | 
[V:10] A4z2e2 | 
[V:11] gefde4 | 
[V:12] c3Ae4 | 
[V:13] C8- | 
[V:14] C4z2c2- | 
[V:15] z2C2C2C2 | 
[V:16] F4z4 | 
[V:17] z2c4c2 | 
[V:18] c2c2c2c2 | 
[V:19] A,,2F,,C,C,4 | 
[V:20] C2B,A,G,4 | 
[V:21] C,4G,2G,2 | 
[V:22] F,,4z4 | 
[V:23] C,4C,4 | 
[V:24] F,,4z2C,2 | 
[V:1] c6G2 | 
[V:2] z8 | 
[V:3] A4E4 | 
[V:4] z8 | 
[V:5] G2F3EED | 
[V:6] c2A4G2- | 
[V:7] z8 | 
[V:8] cBcAe2c2 | 
[V:9] eAf3eg2 | 
[V:10] f3ecde2 | 
[V:11] z2c4BA | 
[V:12] c6g2- | 
[V:13] C8 | 
[V:14] cAA2c4 | 
[V:15] C8- | 
[V:16] C3DEFG2 | 
[V:17] A3FG4 | 
[V:18] c4G4 | 
[V:19] F,,4z2C,2 | 
[V:20] z2C,2C,2C,2 | 
[V:21] F,2A,3G,C2- | 
[V:22] F,,4z4 | 
[V:23] z8 | 
[V:24] F,2F,2E,2E,2 | 
[V:1] z2c2c4- | 
[V:2] c8 | 
[V:3] A2c3B/A/e2 | 
[V:4] A4G2E2 | 
[V:5] F4z4 | 
[V:6] GFA4G2- | 
[V:7] z8 | 
[V:8] c8- | 
[V:9] a4e2c2- | 
[V:10] z2ABcde2- | 
[V:11] A4z2e2 | 
[V:12] gefde4 | 
[V:13] C4C4- | 
[V:14] C8- | 
[V:15] C4z2c2- | 
[V:16] z2C2C2C2 | 
[V:17] F4z4 | 
[V:18] z2c4c2 | 
[V:19] C,2C,2C,2C,2 | 
[V:20] A,,2F,,C,C,4 | 
[V:21] C2B,A,G,4 | 
[V:22] C,4G,2G,2 | 
[V:23] F,,4z4 | 
[V:24] C,4C,4 | 
[V:1] c2A4GF | 
[V:2] c6G2 | 
[V:3] z8 | 
[V:4] A4E4 | 
[V:5] z8 | 
[V:6] G2F3EED | 
[V:7] z8 | 
[V:8] c8- | 
[V:9] cBcAe2c2 | 
[V:10] eAf3eg2 | 
[V:11] f3ecde2 | 
[V:12] z2c4BA | 
[V:13] C2D2E4 | 
[V:14] C8 | 
[V:15] cAA2c4 | 
[V:16] C8- | 
[V:17] C3DEFG2 | 
[V:18] A3FG4 | 
[V:19] C,8 | 
[V:20] F,,4z2C,2 | 
[V:21] z2C,2C,2C,2 | 
[V:22] F,2A,3G,C2 | 
[V:23] F,,4z4 | 
[V:24] z8 | 
[V:1] c8 | 
[V:2] z2c2c4- | 
[V:3] c8 | 
[V:4] A2c3B/A/A2 | 
[V:5] z8 | 
[V:6] F4z4 | 
[V:7] c8- | 
[V:8] c8- | 
[V:9] c8- | 
[V:10] a8- | 
[V:11] z8 | 
[V:12] A8- | 
[V:13] C8- | 
[V:14] C4C4 | 
[V:15] C8- | 
[V:16] C8- | 
[V:17] z2C2C2C2 | 
[V:18] F8- | 
[V:19] F,,8- | 
[V:20] C,8 | 
[V:21] A,,8- | 
[V:22] C8- | 
[V:23] z8 | 
[V:24] z8 | 
[V:1] c6BA | 
[V:2] c2A4GF | 
[V:3] c6c2 | 
[V:4] z8 | 
[V:5] z8 | 
[V:6] z8 | 
[V:7] c8- | 
[V:8] c8- | 
[V:9] c8- | 
[V:10] a8- | 
[V:11] z8 | 
[V:12] A8- | 
[V:13] C8- | 
[V:14] C8- | 
[V:15] C8- | 
[V:16] C8- | 
[V:17] C8- | 
[V:18] F8- | 
[V:19] F,,8- | 
[V:20] C,8- | 
[V:21] A,,8- | 
[V:22] C8- | 
[V:23] z8 | 
[V:24] F,,4F,,4 | 
[V:1] A8- | 
[V:2] c8- | 
[V:3] z2c2c4 | 
[V:4] c4c4 | 
[V:5] A8- | 
[V:6] A4A4 | 
[V:7] c8- | 
[V:8] c8- | 
[V:9] c8- | 
[V:10] a8- | 
[V:11] z2A2A4 | 
[V:12] A8- | 
[V:13] C8- | 
[V:14] C8- | 
[V:15] C8- | 
[V:16] C8- | 
[V:17] C8- | 
[V:18] F8- | 
[V:19] F,,8- | 
[V:20] C,8- | 
[V:21] A,,8- | 
[V:22] C8- | 
[V:23] C,4C,4 | 
[V:24] F,,8- | 
[V:1] A8 |]  
[V:2] c8 |]  
[V:3] c8 |]  
[V:4] c8 |]  
[V:5] A8 |]  
[V:6] A8 |]  
[V:7] c8 |]  
[V:8] c8 |]  
[V:9] c8 |]  
[V:10] a8 |]  
[V:11] A8 |]  
[V:12] A8 |]  
[V:13] C8 |]  
[V:14] C8 |]  
[V:15] C8 |]  
[V:16] C8 |]  
[V:17] C8 |]  
[V:18] F8 |]  
[V:19] F,,8 |]  
[V:20] C,8 |]  
[V:21] A,,8 |]  
[V:22] C8 |]  
[V:23] C,8 |]  
[V:24] F,,8 |]  



